Filmic Resolve - Very High Contrast.cube
# Filmic Very High Contrast		
LUT_1D_SIZE 4096		
LUT_1D_INPUT_RANGE 0.000000000 1.000000000		
0.0000000000000E+00	0.0000000000000E+00	0.0000000000000E+00
8.1846712034145E-07	8.1846712034145E-07	8.1846712034145E-07
1.6396799073310E-06	1.6396799073310E-06	1.6396799073310E-06
2.4636475671941E-06	2.4636475671941E-06	2.4636475671941E-06
3.2903793369937E-06	3.2903793369937E-06	3.2903793369937E-06
4.1198844847345E-06	4.1198844847345E-06	4.1198844847345E-06
4.9521723094657E-06	4.9521723094657E-06	4.9521723094657E-06
5.7872521413850E-06	5.7872521413850E-06	5.7872521413850E-06
6.6251333419427E-06	6.6251333419427E-06	6.6251333419427E-06
7.4658253039461E-06	7.4658253039461E-06	7.4658253039461E-06
8.3093374516645E-06	8.3093374516645E-06	8.3093374516645E-06
9.1556792409342E-06	9.1556792409342E-06	9.1556792409342E-06
1.0004860159264E-05	1.0004860159264E-05	1.0004860159264E-05
1.0856889725942E-05	1.0856889725942E-05	1.0856889725942E-05
1.1711777492139E-05	1.1711777492139E-05	1.1711777492139E-05
1.2569533041020E-05	1.2569533041020E-05	1.2569533041020E-05
1.3430165987846E-05	1.3430165987846E-05	1.3430165987846E-05
1.4293685980083E-05	1.4293685980083E-05	1.4293685980083E-05
1.5160102697512E-05	1.5160102697512E-05	1.5160102697512E-05
1.6029425852335E-05	1.6029425852335E-05	1.6029425852335E-05
1.6901665189281E-05	1.6901665189281E-05	1.6901665189281E-05
1.7776830485722E-05	1.7776830485722E-05	1.7776830485722E-05
1.8654931551772E-05	1.8654931551772E-05	1.8654931551772E-05
1.9535978230405E-05	1.9535978230405E-05	1.9535978230405E-05
2.0419980397561E-05	2.0419980397561E-05	2.0419980397561E-05
2.1306947962257E-05	2.1306947962257E-05	2.1306947962257E-05
2.2196890866696E-05	2.2196890866696E-05	2.2196890866696E-05
2.3089819086381E-05	2.3089819086381E-05	2.3089819086381E-05
2.3985742630222E-05	2.3985742630222E-05	2.3985742630222E-05
2.4884671540654E-05	2.4884671540654E-05	2.4884671540654E-05
2.5786615893742E-05	2.5786615893742E-05	2.5786615893742E-05
2.6691585799298E-05	2.6691585799298E-05	2.6691585799298E-05
2.7599591400991E-05	2.7599591400991E-05	2.7599591400991E-05
2.8510642876464E-05	2.8510642876464E-05	2.8510642876464E-05
2.9424750437442E-05	2.9424750437442E-05	2.9424750437442E-05
3.0341924329852E-05	3.0341924329852E-05	3.0341924329852E-05
3.1262174833931E-05	3.1262174833931E-05	3.1262174833931E-05
3.2185512264348E-05	3.2185512264348E-05	3.2185512264348E-05
3.3111946970310E-05	3.3111946970310E-05	3.3111946970310E-05
3.4041489335687E-05	3.4041489335687E-05	3.4041489335687E-05
3.4974149779120E-05	3.4974149779120E-05	3.4974149779120E-05
3.5909938754141E-05	3.5909938754141E-05	3.5909938754141E-05
3.6848866749290E-05	3.6848866749290E-05	3.6848866749290E-05
3.7790944288231E-05	3.7790944288231E-05	3.7790944288231E-05
3.8736181929867E-05	3.8736181929867E-05	3.8736181929867E-05
3.9684590268462E-05	3.9684590268462E-05	3.9684590268462E-05
4.0636179933757E-05	4.0636179933757E-05	4.0636179933757E-05
4.1590961591089E-05	4.1590961591089E-05	4.1590961591089E-05
4.2548945941508E-05	4.2548945941508E-05	4.2548945941508E-05
4.3510143721899E-05	4.3510143721899E-05	4.3510143721899E-05
4.4474565705100E-05	4.4474565705100E-05	4.4474565705100E-05
4.5442222700025E-05	4.5442222700025E-05	4.5442222700025E-05
4.6413125551780E-05	4.6413125551780E-05	4.6413125551780E-05
4.7387285141786E-05	4.7387285141786E-05	4.7387285141786E-05
4.8364712387902E-05	4.8364712387902E-05	4.8364712387902E-05
4.9345418244545E-05	4.9345418244545E-05	4.9345418244545E-05
5.0329413702812E-05	5.0329413702812E-05	5.0329413702812E-05
5.1316709790601E-05	5.1316709790601E-05	5.1316709790601E-05
5.2307317572740E-05	5.2307317572740E-05	5.2307317572740E-05
5.3301248151103E-05	5.3301248151103E-05	5.3301248151103E-05
5.4298512664739E-05	5.4298512664739E-05	5.4298512664739E-05
5.5299122289991E-05	5.5299122289991E-05	5.5299122289991E-05
5.6303088240627E-05	5.6303088240627E-05	5.6303088240627E-05
5.7310421767960E-05	5.7310421767960E-05	5.7310421767960E-05
5.8321134160977E-05	5.8321134160977E-05	5.8321134160977E-05
5.9335236746460E-05	5.9335236746460E-05	5.9335236746460E-05
6.0352740889117E-05	6.0352740889117E-05	6.0352740889117E-05
6.1373657991707E-05	6.1373657991707E-05	6.1373657991707E-05
6.2397999495166E-05	6.2397999495166E-05	6.2397999495166E-05
6.3425776878737E-05	6.3425776878737E-05	6.3425776878737E-05
6.4457001660095E-05	6.4457001660095E-05	6.4457001660095E-05
6.5491685395477E-05	6.5491685395477E-05	6.5491685395477E-05
6.6529839679812E-05	6.6529839679812E-05	6.6529839679812E-05
6.7571476146846E-05	6.7571476146846E-05	6.7571476146846E-05
6.8616606469277E-05	6.8616606469277E-05	6.8616606469277E-05
6.9665242358881E-05	6.9665242358881E-05	6.9665242358881E-05
7.0717395566646E-05	7.0717395566646E-05	7.0717395566646E-05
7.1773077882897E-05	7.1773077882897E-05	7.1773077882897E-05
7.2832301137436E-05	7.2832301137436E-05	7.2832301137436E-05
7.3895077199666E-05	7.3895077199666E-05	7.3895077199666E-05
7.4961417978727E-05	7.4961417978727E-05	7.4961417978727E-05
7.6031335423630E-05	7.6031335423630E-05	7.6031335423630E-05
7.7104841523384E-05	7.7104841523384E-05	7.7104841523384E-05
7.8181948307139E-05	7.8181948307139E-05	7.8181948307139E-05
7.9262667844310E-05	7.9262667844310E-05	7.9262667844310E-05
8.0347012244720E-05	8.0347012244720E-05	8.0347012244720E-05
8.1434993658730E-05	8.1434993658730E-05	8.1434993658730E-05
8.2526624277373E-05	8.2526624277373E-05	8.2526624277373E-05
8.3621916332497E-05	8.3621916332497E-05	8.3621916332497E-05
8.4720882096892E-05	8.4720882096892E-05	8.4720882096892E-05
8.5823533884434E-05	8.5823533884434E-05	8.5823533884434E-05
8.6929884050220E-05	8.6929884050220E-05	8.6929884050220E-05
8.8039944990703E-05	8.8039944990703E-05	8.8039944990703E-05
8.9153729143832E-05	8.9153729143832E-05	8.9153729143832E-05
9.0271248989194E-05	9.0271248989194E-05	9.0271248989194E-05
9.1392517048146E-05	9.1392517048146E-05	9.1392517048146E-05
9.2517545883961E-05	9.2517545883961E-05	9.2517545883961E-05
9.3646348101962E-05	9.3646348101962E-05	9.3646348101962E-05
9.4778936349668E-05	9.4778936349668E-05	9.4778936349668E-05
9.5915323316931E-05	9.5915323316931E-05	9.5915323316931E-05
9.7055521736080E-05	9.7055521736080E-05	9.7055521736080E-05
9.8199544382059E-05	9.8199544382059E-05	9.8199544382059E-05
9.9347404072575E-05	9.9347404072575E-05	9.9347404072575E-05
1.0049911366823E-04	1.0049911366823E-04	1.0049911366823E-04
1.0165468607269E-04	1.0165468607269E-04	1.0165468607269E-04
1.0281413423279E-04	1.0281413423279E-04	1.0281413423279E-04
1.0397747113870E-04	1.0397747113870E-04	1.0397747113870E-04
1.0514470982408E-04	1.0514470982408E-04	1.0514470982408E-04
1.0631586336620E-04	1.0631586336620E-04	1.0631586336620E-04
1.0749094488612E-04	1.0749094488612E-04	1.0749094488612E-04
1.0866996754879E-04	1.0866996754879E-04	1.0866996754879E-04
1.0985294456324E-04	1.0985294456324E-04	1.0985294456324E-04
1.1103988918269E-04	1.1103988918269E-04	1.1103988918269E-04
1.1223081470473E-04	1.1223081470473E-04	1.1223081470473E-04
1.1342573447146E-04	1.1342573447146E-04	1.1342573447146E-04
1.1462466186961E-04	1.1462466186961E-04	1.1462466186961E-04
1.1582761033073E-04	1.1582761033073E-04	1.1582761033073E-04
1.1703459333132E-04	1.1703459333132E-04	1.1703459333132E-04
1.1824562439298E-04	1.1824562439298E-04	1.1824562439298E-04
1.1946071708254E-04	1.1946071708254E-04	1.1946071708254E-04
1.2067988501227E-04	1.2067988501227E-04	1.2067988501227E-04
1.2190314183997E-04	1.2190314183997E-04	1.2190314183997E-04
1.2313050126915E-04	1.2313050126915E-04	1.2313050126915E-04
1.2436197704918E-04	1.2436197704918E-04	1.2436197704918E-04
1.2559758297545E-04	1.2559758297545E-04	1.2559758297545E-04
1.2683733288949E-04	1.2683733288949E-04	1.2683733288949E-04
1.2808124067917E-04	1.2808124067917E-04	1.2808124067917E-04
1.2932932027884E-04	1.2932932027884E-04	1.2932932027884E-04
1.3058158566946E-04	1.3058158566946E-04	1.3058158566946E-04
1.3183805087878E-04	1.3183805087878E-04	1.3183805087878E-04
1.3309872998150E-04	1.3309872998150E-04	1.3309872998150E-04
1.3436363709941E-04	1.3436363709941E-04	1.3436363709941E-04
1.3563278640155E-04	1.3563278640155E-04	1.3563278640155E-04
1.3690619210437E-04	1.3690619210437E-04	1.3690619210437E-04
1.3818386847191E-04	1.3818386847191E-04	1.3818386847191E-04
1.3946582981592E-04	1.3946582981592E-04	1.3946582981592E-04
1.4075209049603E-04	1.4075209049603E-04	1.4075209049603E-04
1.4204266491995E-04	1.4204266491995E-04	1.4204266491995E-04
1.4333756754355E-04	1.4333756754355E-04	1.4333756754355E-04
1.4463681287113E-04	1.4463681287113E-04	1.4463681287113E-04
1.4594041545546E-04	1.4594041545546E-04	1.4594041545546E-04
1.4724838989803E-04	1.4724838989803E-04	1.4724838989803E-04
1.4856075084920E-04	1.4856075084920E-04	1.4856075084920E-04
1.4987751300831E-04	1.4987751300831E-04	1.4987751300831E-04
1.5119869112391E-04	1.5119869112391E-04	1.5119869112391E-04
1.5252429999389E-04	1.5252429999389E-04	1.5252429999389E-04
1.5385435446563E-04	1.5385435446563E-04	1.5385435446563E-04
1.5518886943620E-04	1.5518886943620E-04	1.5518886943620E-04
1.5652785985252E-04	1.5652785985252E-04	1.5652785985252E-04
1.5787134071150E-04	1.5787134071150E-04	1.5787134071150E-04
1.5921932706023E-04	1.5921932706023E-04	1.5921932706023E-04
1.6057183399613E-04	1.6057183399613E-04	1.6057183399613E-04
1.6192887666714E-04	1.6192887666714E-04	1.6192887666714E-04
1.6329047027187E-04	1.6329047027187E-04	1.6329047027187E-04
1.6465663005979E-04	1.6465663005979E-04	1.6465663005979E-04
1.6602737133136E-04	1.6602737133136E-04	1.6602737133136E-04
1.6740270943824E-04	1.6740270943824E-04	1.6740270943824E-04
1.6878265978346E-04	1.6878265978346E-04	1.6878265978346E-04
1.7016723782155E-04	1.7016723782155E-04	1.7016723782155E-04
1.7155645905875E-04	1.7155645905875E-04	1.7155645905875E-04
1.7295033905318E-04	1.7295033905318E-04	1.7295033905318E-04
1.7434889341498E-04	1.7434889341498E-04	1.7434889341498E-04
1.7575213780655E-04	1.7575213780655E-04	1.7575213780655E-04
1.7716008794264E-04	1.7716008794264E-04	1.7716008794264E-04
1.7857275959058E-04	1.7857275959058E-04	1.7857275959058E-04
1.7999016857045E-04	1.7999016857045E-04	1.7999016857045E-04
1.8141233075525E-04	1.8141233075525E-04	1.8141233075525E-04
1.8283926207105E-04	1.8283926207105E-04	1.8283926207105E-04
1.8427097849722E-04	1.8427097849722E-04	1.8427097849722E-04
1.8570749606656E-04	1.8570749606656E-04	1.8570749606656E-04
1.8714883086551E-04	1.8714883086551E-04	1.8714883086551E-04
1.8859499903429E-04	1.8859499903429E-04	1.8859499903429E-04
1.9004601676714E-04	1.9004601676714E-04	1.9004601676714E-04
1.9150190031245E-04	1.9150190031245E-04	1.9150190031245E-04
1.9296266597294E-04	1.9296266597294E-04	1.9296266597294E-04
1.9442833010587E-04	1.9442833010587E-04	1.9442833010587E-04
1.9589890912322E-04	1.9589890912322E-04	1.9589890912322E-04
1.9737441949183E-04	1.9737441949183E-04	1.9737441949183E-04
1.9885487773365E-04	1.9885487773365E-04	1.9885487773365E-04
2.0034030042586E-04	2.0034030042586E-04	2.0034030042586E-04
2.0183070420109E-04	2.0183070420109E-04	2.0183070420109E-04
2.0332610574759E-04	2.0332610574759E-04	2.0332610574759E-04
2.0482652180943E-04	2.0482652180943E-04	2.0482652180943E-04
2.0633196918668E-04	2.0633196918668E-04	2.0633196918668E-04
2.0784246473557E-04	2.0784246473557E-04	2.0784246473557E-04
2.0935802536874E-04	2.0935802536874E-04	2.0935802536874E-04
2.1087866805536E-04	2.1087866805536E-04	2.1087866805536E-04
2.1240440982135E-04	2.1240440982135E-04	2.1240440982135E-04
2.1393526774958E-04	2.1393526774958E-04	2.1393526774958E-04
2.1547125898002E-04	2.1547125898002E-04	2.1547125898002E-04
2.1701240070999E-04	2.1701240070999E-04	2.1701240070999E-04
2.1855871019430E-04	2.1855871019430E-04	2.1855871019430E-04
2.2011020474545E-04	2.2011020474545E-04	2.2011020474545E-04
2.2166690173385E-04	2.2166690173385E-04	2.2166690173385E-04
2.2322881858798E-04	2.2322881858798E-04	2.2322881858798E-04
2.2479597279460E-04	2.2479597279460E-04	2.2479597279460E-04
2.2636838189896E-04	2.2636838189896E-04	2.2636838189896E-04
2.2794606350494E-04	2.2794606350494E-04	2.2794606350494E-04
2.2952903527532E-04	2.2952903527532E-04	2.2952903527532E-04
2.3111731493190E-04	2.3111731493190E-04	2.3111731493190E-04
2.3271092025578E-04	2.3271092025578E-04	2.3271092025578E-04
2.3430986908747E-04	2.3430986908747E-04	2.3430986908747E-04
2.3591417932715E-04	2.3591417932715E-04	2.3591417932715E-04
2.3752386893486E-04	2.3752386893486E-04	2.3752386893486E-04
2.3913895593065E-04	2.3913895593065E-04	2.3913895593065E-04
2.4075945839487E-04	2.4075945839487E-04	2.4075945839487E-04
2.4238539446826E-04	2.4238539446826E-04	2.4238539446826E-04
2.4401678235227E-04	2.4401678235227E-04	2.4401678235227E-04
2.4565364030915E-04	2.4565364030915E-04	2.4565364030915E-04
2.4729598666224E-04	2.4729598666224E-04	2.4729598666224E-04
2.4894383979613E-04	2.4894383979613E-04	2.4894383979613E-04
2.5059721815685E-04	2.5059721815685E-04	2.5059721815685E-04
2.5225614025213E-04	2.5225614025213E-04	2.5225614025213E-04
2.5392062465154E-04	2.5392062465154E-04	2.5392062465154E-04
2.5559068998676E-04	2.5559068998676E-04	2.5559068998676E-04
2.5726635495173E-04	2.5726635495173E-04	2.5726635495173E-04
2.5894763830290E-04	2.5894763830290E-04	2.5894763830290E-04
2.6063455885939E-04	2.6063455885939E-04	2.6063455885939E-04
2.6232713550327E-04	2.6232713550327E-04	2.6232713550327E-04
2.6402538717970E-04	2.6402538717970E-04	2.6402538717970E-04
2.6572933289717E-04	2.6572933289717E-04	2.6572933289717E-04
2.6743899172772E-04	2.6743899172772E-04	2.6743899172772E-04
2.6915438280714E-04	2.6915438280714E-04	2.6915438280714E-04
2.7087552533517E-04	2.7087552533517E-04	2.7087552533517E-04
2.7260243857574E-04	2.7260243857574E-04	2.7260243857574E-04
2.7433514185716E-04	2.7433514185716E-04	2.7433514185716E-04
2.7607365457235E-04	2.7607365457235E-04	2.7607365457235E-04
2.7781799617906E-04	2.7781799617906E-04	2.7781799617906E-04
2.7956818620004E-04	2.7956818620004E-04	2.7956818620004E-04
2.8132424422332E-04	2.8132424422332E-04	2.8132424422332E-04
2.8308618990239E-04	2.8308618990239E-04	2.8308618990239E-04
2.8485404295643E-04	2.8485404295643E-04	2.8485404295643E-04
2.8662782317052E-04	2.8662782317052E-04	2.8662782317052E-04
2.8840755039587E-04	2.8840755039587E-04	2.8840755039587E-04
2.9019324455001E-04	2.9019324455001E-04	2.9019324455001E-04
2.9198492561708E-04	2.9198492561708E-04	2.9198492561708E-04
2.9378261364797E-04	2.9378261364797E-04	2.9378261364797E-04
2.9558632876058E-04	2.9558632876058E-04	2.9558632876058E-04
2.9739609114006E-04	2.9739609114006E-04	2.9739609114006E-04
2.9921192103901E-04	2.9921192103901E-04	2.9921192103901E-04
3.0103383877770E-04	3.0103383877770E-04	3.0103383877770E-04
3.0286186474431E-04	3.0286186474431E-04	3.0286186474431E-04
3.0469601939515E-04	3.0469601939515E-04	3.0469601939515E-04
3.0653632325489E-04	3.0653632325489E-04	3.0653632325489E-04
3.0838279691678E-04	3.0838279691678E-04	3.0838279691678E-04
3.1023546104290E-04	3.1023546104290E-04	3.1023546104290E-04
3.1209433636434E-04	3.1209433636434E-04	3.1209433636434E-04
3.1395944368150E-04	3.1395944368150E-04	3.1395944368150E-04
3.1583080386424E-04	3.1583080386424E-04	3.1583080386424E-04
3.1770843785220E-04	3.1770843785220E-04	3.1770843785220E-04
3.1959236665494E-04	3.1959236665494E-04	3.1959236665494E-04
3.2148261135225E-04	3.2148261135225E-04	3.2148261135225E-04
3.2337919309434E-04	3.2337919309434E-04	3.2337919309434E-04
3.2528213310209E-04	3.2528213310209E-04	3.2528213310209E-04
3.2719145266726E-04	3.2719145266726E-04	3.2719145266726E-04
3.2910717315277E-04	3.2910717315277E-04	3.2910717315277E-04
3.3102931599292E-04	3.3102931599292E-04	3.3102931599292E-04
3.3295790269359E-04	3.3295790269359E-04	3.3295790269359E-04
3.3489295483252E-04	3.3489295483252E-04	3.3489295483252E-04
3.3683449405957E-04	3.3683449405957E-04	3.3683449405957E-04
3.3878254209687E-04	3.3878254209687E-04	3.3878254209687E-04
3.4073712073916E-04	3.4073712073916E-04	3.4073712073916E-04
3.4269825185398E-04	3.4269825185398E-04	3.4269825185398E-04
3.4466595738191E-04	3.4466595738191E-04	3.4466595738191E-04
3.4664025933684E-04	3.4664025933684E-04	3.4664025933684E-04
3.4862117980617E-04	3.4862117980617E-04	3.4862117980617E-04
3.5060874095112E-04	3.5060874095112E-04	3.5060874095112E-04
3.5260296500691E-04	3.5260296500691E-04	3.5260296500691E-04
3.5460387428305E-04	3.5460387428305E-04	3.5460387428305E-04
3.5661149116355E-04	3.5661149116355E-04	3.5661149116355E-04
3.5862583810721E-04	3.5862583810721E-04	3.5862583810721E-04
3.6064693764782E-04	3.6064693764782E-04	3.6064693764782E-04
3.6267481239448E-04	3.6267481239448E-04	3.6267481239448E-04
3.6470948503175E-04	3.6470948503175E-04	3.6470948503175E-04
3.6675097832001E-04	3.6675097832001E-04	3.6675097832001E-04
3.6879931509562E-04	3.6879931509562E-04	3.6879931509562E-04
3.7085451827123E-04	3.7085451827123E-04	3.7085451827123E-04
3.7291661083602E-04	3.7291661083602E-04	3.7291661083602E-04
3.7498561585593E-04	3.7498561585593E-04	3.7498561585593E-04
3.7706155647395E-04	3.7706155647395E-04	3.7706155647395E-04
3.7914445591035E-04	3.7914445591035E-04	3.7914445591035E-04
3.8123433746297E-04	3.8123433746297E-04	3.8123433746297E-04
3.8333122450742E-04	3.8333122450742E-04	3.8333122450742E-04
3.8543514049741E-04	3.8543514049741E-04	3.8543514049741E-04
3.8754610896494E-04	3.8754610896494E-04	3.8754610896494E-04
3.8966415352061E-04	3.8966415352061E-04	3.8966415352061E-04
3.9178929785388E-04	3.9178929785388E-04	3.9178929785388E-04
3.9392156573328E-04	3.9392156573328E-04	3.9392156573328E-04
3.9606098100673E-04	3.9606098100673E-04	3.9606098100673E-04
3.9820756760179E-04	3.9820756760179E-04	3.9820756760179E-04
4.0036134952590E-04	4.0036134952590E-04	4.0036134952590E-04
4.0252235086667E-04	4.0252235086667E-04	4.0252235086667E-04
4.0469059579215E-04	4.0469059579215E-04	4.0469059579215E-04
4.0686610855106E-04	4.0686610855106E-04	4.0686610855106E-04
4.0904891347312E-04	4.0904891347312E-04	4.0904891347312E-04
4.1123903496924E-04	4.1123903496924E-04	4.1123903496924E-04
4.1343649753187E-04	4.1343649753187E-04	4.1343649753187E-04
4.1564132573522E-04	4.1564132573522E-04	4.1564132573522E-04
4.1785354423553E-04	4.1785354423553E-04	4.1785354423553E-04
4.2007317777139E-04	4.2007317777139E-04	4.2007317777139E-04
4.2230025116395E-04	4.2230025116395E-04	4.2230025116395E-04
4.2453478931724E-04	4.2453478931724E-04	4.2453478931724E-04
4.2677681721843E-04	4.2677681721843E-04	4.2677681721843E-04
4.2902635993810E-04	4.2902635993810E-04	4.2902635993810E-04
4.3128344263053E-04	4.3128344263053E-04	4.3128344263053E-04
4.3354809053396E-04	4.3354809053396E-04	4.3354809053396E-04
4.3582032897091E-04	4.3582032897091E-04	4.3582032897091E-04
4.3810018334839E-04	4.3810018334839E-04	4.3810018334839E-04
4.4038767915824E-04	4.4038767915824E-04	4.4038767915824E-04
4.4268284197740E-04	4.4268284197740E-04	4.4268284197740E-04
4.4498569746817E-04	4.4498569746817E-04	4.4498569746817E-04
4.4729627137851E-04	4.4729627137851E-04	4.4729627137851E-04
4.4961458954232E-04	4.4961458954232E-04	4.4961458954232E-04
4.5194067787975E-04	4.5194067787975E-04	4.5194067787975E-04
4.5427456239742E-04	4.5427456239742E-04	4.5427456239742E-04
4.5661626918879E-04	4.5661626918879E-04	4.5661626918879E-04
4.5896582443439E-04	4.5896582443439E-04	4.5896582443439E-04
4.6132325440214E-04	4.6132325440214E-04	4.6132325440214E-04
4.6368858544761E-04	4.6368858544761E-04	4.6368858544761E-04
4.6606184401435E-04	4.6606184401435E-04	4.6606184401435E-04
4.6844305663413E-04	4.6844305663413E-04	4.6844305663413E-04
4.7083224992730E-04	4.7083224992730E-04	4.7083224992730E-04
4.7322945060302E-04	4.7322945060302E-04	4.7322945060302E-04
4.7563468545960E-04	4.7563468545960E-04	4.7563468545960E-04
4.7804798138475E-04	4.7804798138475E-04	4.7804798138475E-04
4.8046936535594E-04	4.8046936535594E-04	4.8046936535594E-04
4.8289886444064E-04	4.8289886444064E-04	4.8289886444064E-04
4.8533650579664E-04	4.8533650579664E-04	4.8533650579664E-04
4.8778231667236E-04	4.8778231667236E-04	4.8778231667236E-04
4.9023632440714E-04	4.9023632440714E-04	4.9023632440714E-04
4.9269855643153E-04	4.9269855643153E-04	4.9269855643153E-04
4.9516904026761E-04	4.9516904026761E-04	4.9516904026761E-04
4.9764780352930E-04	4.9764780352930E-04	4.9764780352930E-04
5.0013487392265E-04	5.0013487392265E-04	5.0013487392265E-04
5.0263027924613E-04	5.0263027924613E-04	5.0263027924613E-04
5.0513404739097E-04	5.0513404739097E-04	5.0513404739097E-04
5.0764620634146E-04	5.0764620634146E-04	5.0764620634146E-04
5.1016678417523E-04	5.1016678417523E-04	5.1016678417523E-04
5.1269580906361E-04	5.1269580906361E-04	5.1269580906361E-04
5.1523330927188E-04	5.1523330927188E-04	5.1523330927188E-04
5.1777931315963E-04	5.1777931315963E-04	5.1777931315963E-04
5.2033384918106E-04	5.2033384918106E-04	5.2033384918106E-04
5.2289694588527E-04	5.2289694588527E-04	5.2289694588527E-04
5.2546863191662E-04	5.2546863191662E-04	5.2546863191662E-04
5.2804893601500E-04	5.2804893601500E-04	5.2804893601500E-04
5.3063788701618E-04	5.3063788701618E-04	5.3063788701618E-04
5.3323551385209E-04	5.3323551385209E-04	5.3323551385209E-04
5.3584184555119E-04	5.3584184555119E-04	5.3584184555119E-04
5.3845691123876E-04	5.3845691123876E-04	5.3845691123876E-04
5.4108074013720E-04	5.4108074013720E-04	5.4108074013720E-04
5.4371336156641E-04	5.4371336156641E-04	5.4371336156641E-04
5.4635480494404E-04	5.4635480494404E-04	5.4635480494404E-04
5.4900509978590E-04	5.4900509978590E-04	5.4900509978590E-04
5.5166427570619E-04	5.5166427570619E-04	5.5166427570619E-04
5.5433236241791E-04	5.5433236241791E-04	5.5433236241791E-04
5.5700938973313E-04	5.5700938973313E-04	5.5700938973313E-04
5.5969538756335E-04	5.5969538756335E-04	5.5969538756335E-04
5.6239038591982E-04	5.6239038591982E-04	5.6239038591982E-04
5.6509441491386E-04	5.6509441491386E-04	5.6509441491386E-04
5.6780750475721E-04	5.6780750475721E-04	5.6780750475721E-04
5.7052968576235E-04	5.7052968576235E-04	5.7052968576235E-04
5.7326098834284E-04	5.7326098834284E-04	5.7326098834284E-04
5.7600144301366E-04	5.7600144301366E-04	5.7600144301366E-04
5.7875108039151E-04	5.7875108039151E-04	5.7875108039151E-04
5.8150993119521E-04	5.8150993119521E-04	5.8150993119521E-04
5.8427802624598E-04	5.8427802624598E-04	5.8427802624598E-04
5.8705539646782E-04	5.8705539646782E-04	5.8705539646782E-04
5.8984207288782E-04	5.8984207288782E-04	5.8984207288782E-04
5.9263808663652E-04	5.9263808663652E-04	5.9263808663652E-04
5.9544346894824E-04	5.9544346894824E-04	5.9544346894824E-04
5.9825825116144E-04	5.9825825116144E-04	5.9825825116144E-04
6.0108246471905E-04	6.0108246471905E-04	6.0108246471905E-04
6.0391614116883E-04	6.0391614116883E-04	6.0391614116883E-04
6.0675931216368E-04	6.0675931216368E-04	6.0675931216368E-04
6.0961200946207E-04	6.0961200946207E-04	6.0961200946207E-04
6.1247426492828E-04	6.1247426492828E-04	6.1247426492828E-04
6.1534611053283E-04	6.1534611053283E-04	6.1534611053283E-04
6.1822757835282E-04	6.1822757835282E-04	6.1822757835282E-04
6.2111870057226E-04	6.2111870057226E-04	6.2111870057226E-04
6.2401950948243E-04	6.2401950948243E-04	6.2401950948243E-04
6.2693003748223E-04	6.2693003748223E-04	6.2693003748223E-04
6.2985031707858E-04	6.2985031707858E-04	6.2985031707858E-04
6.3278038088671E-04	6.3278038088671E-04	6.3278038088671E-04
6.3572026163057E-04	6.3572026163057E-04	6.3572026163057E-04
6.3866999214316E-04	6.3866999214316E-04	6.3866999214316E-04
6.4162960536691E-04	6.4162960536691E-04	6.4162960536691E-04
6.4459913435404E-04	6.4459913435404E-04	6.4459913435404E-04
6.4757861226690E-04	6.4757861226690E-04	6.4757861226690E-04
6.5056807237837E-04	6.5056807237837E-04	6.5056807237837E-04
6.5356754807220E-04	6.5356754807220E-04	6.5356754807220E-04
6.5657707284338E-04	6.5657707284338E-04	6.5657707284338E-04
