Filmic Resolve - Open Domain to Filmic Shaper.cube
# Open Domain BT.709 to Filmic Shaper		
LUT_1D_SIZE 65536		
LUT_1D_INPUT_RANGE 0.00017578125 5898.24		
0.0000000000000E+00	0.0000000000000E+00	0.0000000000000E+00
3.6000088055789E-01	3.6000088055789E-01	3.6000088055789E-01
4.0000088055789E-01	4.0000088055789E-01	4.0000088055789E-01
4.2339938058674E-01	4.2339938058674E-01	4.2339938058674E-01
4.4000088055789E-01	4.4000088055789E-01	4.4000088055789E-01
4.5287800435339E-01	4.5287800435339E-01	4.5287800435339E-01
4.6339938058674E-01	4.6339938058674E-01	4.6339938058674E-01
4.7229507744020E-01	4.7229507744020E-01	4.7229507744020E-01
4.8000088055789E-01	4.8000088055789E-01	4.8000088055789E-01
4.8679788061558E-01	4.8679788061558E-01	4.8679788061558E-01
4.9287800435339E-01	4.9287800435339E-01	4.9287800435339E-01
4.9837814530338E-01	4.9837814530338E-01	4.9837814530338E-01
5.0339938058674E-01	5.0339938058674E-01	5.0339938058674E-01
5.0801846928353E-01	5.0801846928353E-01	5.0801846928353E-01
5.1229507744020E-01	5.1229507744020E-01	5.1229507744020E-01
5.1627650438223E-01	5.1627650438223E-01	5.1627650438223E-01
5.2000088055789E-01	5.2000088055789E-01	5.2000088055789E-01
5.2349939420790E-01	5.2349939420790E-01	5.2349939420790E-01
5.2679788061558E-01	5.2679788061558E-01	5.2679788061558E-01
5.2991798109563E-01	5.2991798109563E-01	5.2991798109563E-01
5.3287800435339E-01	5.3287800435339E-01	5.3287800435339E-01
5.3569357746904E-01	5.3569357746904E-01	5.3569357746904E-01
5.3837814530338E-01	5.3837814530338E-01	5.3837814530338E-01
5.4094335880017E-01	5.4094335880017E-01	5.4094335880017E-01
5.4339938058674E-01	5.4339938058674E-01	5.4339938058674E-01
5.4575512814888E-01	5.4575512814888E-01	5.4575512814888E-01
5.4801846928353E-01	5.4801846928353E-01	5.4801846928353E-01
5.5019638064443E-01	5.5019638064443E-01	5.5019638064443E-01
5.5229507744020E-01	5.5229507744020E-01	5.5229507744020E-01
5.5432012036299E-01	5.5432012036299E-01	5.5432012036299E-01
5.5627650438223E-01	5.5627650438223E-01	5.5627650438223E-01
5.5816873297337E-01	5.5816873297337E-01	5.5816873297337E-01
5.6000088055789E-01	5.6000088055789E-01	5.6000088055789E-01
5.6177664533223E-01	5.6177664533223E-01	5.6177664533223E-01
5.6349939420790E-01	5.6349939420790E-01	5.6349939420790E-01
5.6517220123569E-01	5.6517220123569E-01	5.6517220123569E-01
5.6679788061558E-01	5.6679788061558E-01	5.6679788061558E-01
5.6837901518305E-01	5.6837901518305E-01	5.6837901518305E-01
5.6991798109563E-01	5.6991798109563E-01	5.6991798109563E-01
5.7141696931238E-01	5.7141696931238E-01	5.7141696931238E-01
5.7287800435339E-01	5.7287800435339E-01	5.7287800435339E-01
5.7430296074261E-01	5.7430296074261E-01	5.7430296074261E-01
5.7569357746904E-01	5.7569357746904E-01	5.7569357746904E-01
5.7705147074598E-01	5.7705147074598E-01	5.7705147074598E-01
5.7837814530338E-01	5.7837814530338E-01	5.7837814530338E-01
5.7967500441108E-01	5.7967500441108E-01	5.7967500441108E-01
5.8094335880017E-01	5.8094335880017E-01	5.8094335880017E-01
5.8218443462500E-01	5.8218443462500E-01	5.8218443462500E-01
5.8339938058674E-01	5.8339938058674E-01	5.8339938058674E-01
5.8458927432250E-01	5.8458927432250E-01	5.8458927432250E-01
5.8575512814888E-01	5.8575512814888E-01	5.8575512814888E-01
5.8689789423675E-01	5.8689789423675E-01	5.8689789423675E-01
5.8801846928353E-01	5.8801846928353E-01	5.8801846928353E-01
5.8911769874042E-01	5.8911769874042E-01	5.8911769874042E-01
5.9019638064443E-01	5.9019638064443E-01	5.9019638064443E-01
5.9125526909888E-01	5.9125526909888E-01	5.9125526909888E-01
5.9229507744020E-01	5.9229507744020E-01	5.9229507744020E-01
5.9331648112448E-01	5.9331648112448E-01	5.9331648112448E-01
5.9432012036299E-01	5.9432012036299E-01	5.9432012036299E-01
5.9530660253236E-01	5.9530660253236E-01	5.9530660253236E-01
5.9627650438223E-01	5.9627650438223E-01	5.9627650438223E-01
5.9723037406041E-01	5.9723037406041E-01	5.9723037406041E-01
5.9816873297337E-01	5.9816873297337E-01	5.9816873297337E-01
5.9909207749789E-01	5.9909207749789E-01	5.9909207749789E-01
6.0000088055789E-01	6.0000088055789E-01	6.0000088055789E-01
6.0089559307903E-01	6.0089559307903E-01	6.0089559307903E-01
6.0177664533223E-01	6.0177664533223E-01	6.0177664533223E-01
6.0264444817620E-01	6.0264444817620E-01	6.0264444817620E-01
6.0349939420790E-01	6.0349939420790E-01	6.0349939420790E-01
6.0434185882902E-01	6.0434185882902E-01	6.0434185882902E-01
6.0517220123569E-01	6.0517220123569E-01	6.0517220123569E-01
6.0599076533808E-01	6.0599076533808E-01	6.0599076533808E-01
6.0679788061558E-01	6.0679788061558E-01	6.0679788061558E-01
6.0759386291309E-01	6.0759386291309E-01	6.0759386291309E-01
6.0837901518305E-01	6.0837901518305E-01	6.0837901518305E-01
6.0915362817773E-01	6.0915362817773E-01	6.0915362817773E-01
6.0991798109563E-01	6.0991798109563E-01	6.0991798109563E-01
6.1067234218569E-01	6.1067234218569E-01	6.1067234218569E-01
6.1141696931238E-01	6.1141696931238E-01	6.1141696931238E-01
6.1215211048498E-01	6.1215211048498E-01	6.1215211048498E-01
6.1287800435339E-01	6.1287800435339E-01	6.1287800435339E-01
6.1359488067328E-01	6.1359488067328E-01	6.1359488067328E-01
6.1430296074261E-01	6.1430296074261E-01	6.1430296074261E-01
6.1500245781177E-01	6.1500245781177E-01	6.1500245781177E-01
6.1569357746904E-01	6.1569357746904E-01	6.1569357746904E-01
6.1637651800340E-01	6.1637651800340E-01	6.1637651800340E-01
6.1705147074598E-01	6.1705147074598E-01	6.1705147074598E-01
6.1771862039184E-01	6.1771862039184E-01	6.1771862039184E-01
6.1837814530338E-01	6.1837814530338E-01	6.1837814530338E-01
6.1903021779655E-01	6.1903021779655E-01	6.1903021779655E-01
6.1967500441108E-01	6.1967500441108E-01	6.1967500441108E-01
6.2031266616584E-01	6.2031266616584E-01	6.2031266616584E-01
6.2094335880017E-01	6.2094335880017E-01	6.2094335880017E-01
6.2156723300221E-01	6.2156723300221E-01	6.2156723300221E-01
6.2218443462500E-01	6.2218443462500E-01	6.2218443462500E-01
6.2279510489113E-01	6.2279510489113E-01	6.2279510489113E-01
6.2339938058674E-01	6.2339938058674E-01	6.2339938058674E-01
6.2399739424538E-01	6.2399739424538E-01	6.2399739424538E-01
6.2458927432250E-01	6.2458927432250E-01	6.2458927432250E-01
6.2517514536108E-01	6.2517514536108E-01	6.2517514536108E-01
6.2575512814888E-01	6.2575512814888E-01	6.2575512814888E-01
6.2632933986796E-01	6.2632933986796E-01	6.2632933986796E-01
6.2689789423675E-01	6.2689789423675E-01	6.2689789423675E-01
6.2746090164522E-01	6.2746090164522E-01	6.2746090164522E-01
6.2801846928353E-01	6.2801846928353E-01	6.2801846928353E-01
6.2857070126454E-01	6.2857070126454E-01	6.2857070126454E-01
6.2911769874042E-01	6.2911769874042E-01	6.2911769874042E-01
6.2965956001394E-01	6.2965956001394E-01	6.2965956001394E-01
6.3019638064443E-01	6.3019638064443E-01	6.3019638064443E-01
6.3072825354897E-01	6.3072825354897E-01	6.3072825354897E-01
6.3125526909888E-01	6.3125526909888E-01	6.3125526909888E-01
6.3177751521190E-01	6.3177751521190E-01	6.3177751521190E-01
6.3229507744020E-01	6.3229507744020E-01	6.3229507744020E-01
6.3280803905450E-01	6.3280803905450E-01	6.3280803905450E-01
6.3331648112448E-01	6.3331648112448E-01	6.3331648112448E-01
6.3382048259567E-01	6.3382048259567E-01	6.3382048259567E-01
6.3432012036299E-01	6.3432012036299E-01	6.3432012036299E-01
6.3481546934123E-01	6.3481546934123E-01	6.3481546934123E-01
6.3530660253236E-01	6.3530660253236E-01	6.3530660253236E-01
6.3579359109021E-01	6.3579359109021E-01	6.3579359109021E-01
6.3627650438223E-01	6.3627650438223E-01	6.3627650438223E-01
6.3675541004887E-01	6.3675541004887E-01	6.3675541004887E-01
6.3723037406041E-01	6.3723037406041E-01	6.3723037406041E-01
6.3770146077146E-01	6.3770146077146E-01	6.3770146077146E-01
6.3816873297337E-01	6.3816873297337E-01	6.3816873297337E-01
6.3863225194437E-01	6.3863225194437E-01	6.3863225194437E-01
6.3909207749789E-01	6.3909207749789E-01	6.3909207749789E-01
6.3954826802878E-01	6.3954826802878E-01	6.3954826802878E-01
6.4000088055789E-01	6.4000088055789E-01	6.4000088055789E-01
6.4044997077482E-01	6.4044997077482E-01	6.4044997077482E-01
6.4089559307903E-01	6.4089559307903E-01	6.4089559307903E-01
6.4133780061939E-01	6.4133780061939E-01	6.4133780061939E-01
6.4177664533223E-01	6.4177664533223E-01	6.4177664533223E-01
6.4221217797794E-01	6.4221217797794E-01	6.4221217797794E-01
6.4264444817620E-01	6.4264444817620E-01	6.4264444817620E-01
6.4307350443992E-01	6.4307350443992E-01	6.4307350443992E-01
6.4349939420790E-01	6.4349939420790E-01	6.4349939420790E-01
6.4392216387631E-01	6.4392216387631E-01	6.4392216387631E-01
6.4434185882902E-01	6.4434185882902E-01	6.4434185882902E-01
6.4475852346683E-01	6.4475852346683E-01	6.4475852346683E-01
6.4517220123569E-01	6.4517220123569E-01	6.4517220123569E-01
6.4558293465384E-01	6.4558293465384E-01	6.4558293465384E-01
6.4599076533808E-01	6.4599076533808E-01	6.4599076533808E-01
6.4639573402903E-01	6.4639573402903E-01	6.4639573402903E-01
6.4679788061558E-01	6.4679788061558E-01	6.4679788061558E-01
6.4719724415849E-01	6.4719724415849E-01	6.4719724415849E-01
6.4759386291309E-01	6.4759386291309E-01	6.4759386291309E-01
6.4798777435135E-01	6.4798777435135E-01	6.4798777435135E-01
6.4837901518305E-01	6.4837901518305E-01	6.4837901518305E-01
6.4876762137638E-01	6.4876762137638E-01	6.4876762137638E-01
6.4915362817773E-01	6.4915362817773E-01	6.4915362817773E-01
6.4953707013089E-01	6.4953707013089E-01	6.4953707013089E-01
6.4991798109563E-01	6.4991798109563E-01	6.4991798109563E-01
6.5029639426560E-01	6.5029639426560E-01	6.5029639426560E-01
6.5067234218569E-01	6.5067234218569E-01	6.5067234218569E-01
6.5104585676886E-01	6.5104585676886E-01	6.5104585676886E-01
6.5141696931238E-01	6.5141696931238E-01	6.5141696931238E-01
6.5178571051356E-01	6.5178571051356E-01	6.5178571051356E-01
6.5215211048498E-01	6.5215211048498E-01	6.5215211048498E-01
6.5251619876927E-01	6.5251619876927E-01	6.5251619876927E-01
6.5287800435339E-01	6.5287800435339E-01	6.5287800435339E-01
6.5323755568248E-01	6.5323755568248E-01	6.5323755568248E-01
6.5359488067328E-01	6.5359488067328E-01	6.5359488067328E-01
6.5395000672713E-01	6.5395000672713E-01	6.5395000672713E-01
6.5430296074261E-01	6.5430296074261E-01	6.5430296074261E-01
6.5465376912772E-01	6.5465376912772E-01	6.5465376912772E-01
6.5500245781177E-01	6.5500245781177E-01	6.5500245781177E-01
6.5534905225685E-01	6.5534905225685E-01	6.5534905225685E-01
6.5569357746904E-01	6.5569357746904E-01	6.5569357746904E-01
6.5603605800918E-01	6.5603605800918E-01	6.5603605800918E-01
6.5637651800340E-01	6.5637651800340E-01	6.5637651800340E-01
6.5671498115333E-01	6.5671498115333E-01	6.5671498115333E-01
6.5705147074598E-01	6.5705147074598E-01	6.5705147074598E-01
6.5738600966336E-01	6.5738600966336E-01	6.5738600966336E-01
6.5771862039184E-01	6.5771862039184E-01	6.5771862039184E-01
6.5804932503118E-01	6.5804932503118E-01	6.5804932503118E-01
6.5837814530338E-01	6.5837814530338E-01	6.5837814530338E-01
6.5870510256121E-01	6.5870510256121E-01	6.5870510256121E-01
6.5903021779655E-01	6.5903021779655E-01	6.5903021779655E-01
6.5935351164846E-01	6.5935351164846E-01	6.5935351164846E-01
6.5967500441108E-01	6.5967500441108E-01	6.5967500441108E-01
6.5999471604122E-01	6.5999471604122E-01	6.5999471604122E-01
6.6031266616584E-01	6.6031266616584E-01	6.6031266616584E-01
6.6062887408925E-01	6.6062887408925E-01	6.6062887408925E-01
6.6094335880017E-01	6.6094335880017E-01	6.6094335880017E-01
6.6125613897854E-01	6.6125613897854E-01	6.6125613897854E-01
6.6156723300221E-01	6.6156723300221E-01	6.6156723300221E-01
6.6187665895340E-01	6.6187665895340E-01	6.6187665895340E-01
6.6218443462500E-01	6.6218443462500E-01	6.6218443462500E-01
6.6249057752673E-01	6.6249057752673E-01	6.6249057752673E-01
6.6279510489113E-01	6.6279510489113E-01	6.6279510489113E-01
6.6309803367932E-01	6.6309803367932E-01	6.6309803367932E-01
6.6339938058674E-01	6.6339938058674E-01	6.6339938058674E-01
6.6369916204861E-01	6.6369916204861E-01	6.6369916204861E-01
6.6399739424538E-01	6.6399739424538E-01	6.6399739424538E-01
6.6429409310788E-01	6.6429409310788E-01	6.6429409310788E-01
6.6458927432250E-01	6.6458927432250E-01	6.6458927432250E-01
6.6488295333615E-01	6.6488295333615E-01	6.6488295333615E-01
6.6517514536108E-01	6.6517514536108E-01	6.6517514536108E-01
6.6546586537964E-01	6.6546586537964E-01	6.6546586537964E-01
6.6575512814888E-01	6.6575512814888E-01	6.6575512814888E-01
6.6604294820505E-01	6.6604294820505E-01	6.6604294820505E-01
6.6632933986796E-01	6.6632933986796E-01	6.6632933986796E-01
6.6661431724530E-01	6.6661431724530E-01	6.6661431724530E-01
6.6689789423675E-01	6.6689789423675E-01	6.6689789423675E-01
6.6718008453811E-01	6.6718008453811E-01	6.6718008453811E-01
6.6746090164522E-01	6.6746090164522E-01	6.6746090164522E-01
6.6774035885786E-01	6.6774035885786E-01	6.6774035885786E-01
6.6801846928353E-01	6.6801846928353E-01	6.6801846928353E-01
6.6829524584113E-01	6.6829524584113E-01	6.6829524584113E-01
6.6857070126454E-01	6.6857070126454E-01	6.6857070126454E-01
6.6884484810618E-01	6.6884484810618E-01	6.6884484810618E-01
6.6911769874042E-01	6.6911769874042E-01	6.6911769874042E-01
6.6938926536692E-01	6.6938926536692E-01	6.6938926536692E-01
6.6965956001394E-01	6.6965956001394E-01	6.6965956001394E-01
6.6992859454147E-01	6.6992859454147E-01	6.6992859454147E-01
6.7019638064443E-01	6.7019638064443E-01	6.7019638064443E-01
6.7046292985567E-01	6.7046292985567E-01	6.7046292985567E-01
6.7072825354897E-01	6.7072825354897E-01	6.7072825354897E-01
6.7099236294194E-01	6.7099236294194E-01	6.7099236294194E-01
6.7125526909888E-01	6.7125526909888E-01	6.7125526909888E-01
6.7151698293355E-01	6.7151698293355E-01	6.7151698293355E-01
6.7177751521190E-01	6.7177751521190E-01	6.7177751521190E-01
6.7203687655470E-01	6.7203687655470E-01	6.7203687655470E-01
6.7229507744020E-01	6.7229507744020E-01	6.7229507744020E-01
6.7255212820657E-01	6.7255212820657E-01	6.7255212820657E-01
6.7280803905450E-01	6.7280803905450E-01	6.7280803905450E-01
6.7306282004953E-01	6.7306282004953E-01	6.7306282004953E-01
6.7331648112448E-01	6.7331648112448E-01	6.7331648112448E-01
6.7356903208177E-01	6.7356903208177E-01	6.7356903208177E-01
6.7382048259567E-01	6.7382048259567E-01	6.7382048259567E-01
6.7407084221453E-01	6.7407084221453E-01	6.7407084221453E-01
6.7432012036299E-01	6.7432012036299E-01	6.7432012036299E-01
6.7456832634406E-01	6.7456832634406E-01	6.7456832634406E-01
6.7481546934123E-01	6.7481546934123E-01	6.7481546934123E-01
6.7506155842049E-01	6.7506155842049E-01	6.7506155842049E-01
6.7530660253236E-01	6.7530660253236E-01	6.7530660253236E-01
6.7555061051382E-01	6.7555061051382E-01	6.7555061051382E-01
6.7579359109021E-01	6.7579359109021E-01	6.7579359109021E-01
6.7603555287712E-01	6.7603555287712E-01	6.7603555287712E-01
6.7627650438223E-01	6.7627650438223E-01	6.7627650438223E-01
6.7651645400709E-01	6.7651645400709E-01	6.7651645400709E-01
6.7675541004887E-01	6.7675541004887E-01	6.7675541004887E-01
6.7699338070212E-01	6.7699338070212E-01	6.7699338070212E-01
6.7723037406041E-01	6.7723037406041E-01	6.7723037406041E-01
6.7746639811799E-01	6.7746639811799E-01	6.7746639811799E-01
6.7770146077146E-01	6.7770146077146E-01	6.7770146077146E-01
6.7793556982128E-01	6.7793556982128E-01	6.7793556982128E-01
6.7816873297337E-01	6.7816873297337E-01	6.7816873297337E-01
6.7840095784061E-01	6.7840095784061E-01	6.7840095784061E-01
6.7863225194437E-01	6.7863225194437E-01	6.7863225194437E-01
6.7886262271592E-01	6.7886262271592E-01	6.7886262271592E-01
6.7909207749789E-01	6.7909207749789E-01	6.7909207749789E-01
6.7932062354566E-01	6.7932062354566E-01	6.7932062354566E-01
6.7954826802878E-01	6.7954826802878E-01	6.7954826802878E-01
6.7977501803225E-01	6.7977501803225E-01	6.7977501803225E-01
6.8000088055789E-01	6.8000088055789E-01	6.8000088055789E-01
6.8022586252565E-01	6.8022586252565E-01	6.8022586252565E-01
6.8044997077482E-01	6.8044997077482E-01	6.8044997077482E-01
6.8067321206535E-01	6.8067321206535E-01	6.8067321206535E-01
6.8089559307903E-01	6.8089559307903E-01	6.8089559307903E-01
6.8111712042069E-01	6.8111712042069E-01	6.8111712042069E-01
6.8133780061939E-01	6.8133780061939E-01	6.8133780061939E-01
6.8155764012958E-01	6.8155764012958E-01	6.8155764012958E-01
6.8177664533223E-01	6.8177664533223E-01	6.8177664533223E-01
6.8199482253591E-01	6.8199482253591E-01	6.8199482253591E-01
6.8221217797794E-01	6.8221217797794E-01	6.8221217797794E-01
6.8242871782539E-01	6.8242871782539E-01	6.8242871782539E-01
6.8264444817620E-01	6.8264444817620E-01	6.8264444817620E-01
6.8285937506016E-01	6.8285937506016E-01	6.8285937506016E-01
6.8307350443992E-01	6.8307350443992E-01	6.8307350443992E-01
6.8328684221205E-01	6.8328684221205E-01	6.8328684221205E-01
6.8349939420790E-01	6.8349939420790E-01	6.8349939420790E-01
6.8371116619469E-01	6.8371116619469E-01	6.8371116619469E-01
6.8392216387631E-01	6.8392216387631E-01	6.8392216387631E-01
6.8413239289437E-01	6.8413239289437E-01	6.8413239289437E-01
6.8434185882902E-01	6.8434185882902E-01	6.8434185882902E-01
6.8455056719986E-01	6.8455056719986E-01	6.8455056719986E-01
6.8475852346683E-01	6.8475852346683E-01	6.8475852346683E-01
6.8496573303106E-01	6.8496573303106E-01	6.8496573303106E-01
6.8517220123569E-01	6.8517220123569E-01	6.8517220123569E-01
6.8537793336673E-01	6.8537793336673E-01	6.8537793336673E-01
6.8558293465384E-01	6.8558293465384E-01	6.8558293465384E-01
6.8578721027117E-01	6.8578721027117E-01	6.8578721027117E-01
6.8599076533808E-01	6.8599076533808E-01	6.8599076533808E-01
6.8619360491998E-01	6.8619360491998E-01	6.8619360491998E-01
6.8639573402903E-01	6.8639573402903E-01	6.8639573402903E-01
6.8659715762492E-01	6.8659715762492E-01	6.8659715762492E-01
6.8679788061558E-01	6.8679788061558E-01	6.8679788061558E-01
6.8699790785792E-01	6.8699790785792E-01	6.8699790785792E-01
6.8719724415849E-01	6.8719724415849E-01	6.8719724415849E-01
6.8739589427422E-01	6.8739589427422E-01	6.8739589427422E-01
6.8759386291309E-01	6.8759386291309E-01	6.8759386291309E-01
6.8779115473478E-01	6.8779115473478E-01	6.8779115473478E-01
6.8798777435135E-01	6.8798777435135E-01	6.8798777435135E-01
6.8818372632786E-01	6.8818372632786E-01	6.8818372632786E-01
6.8837901518305E-01	6.8837901518305E-01	6.8837901518305E-01
6.8857364538992E-01	6.8857364538992E-01	6.8857364538992E-01
6.8876762137638E-01	6.8876762137638E-01	6.8876762137638E-01
6.8896094752582E-01	6.8896094752582E-01	6.8896094752582E-01
6.8915362817773E-01	6.8915362817773E-01	6.8915362817773E-01
6.8934566762828E-01	6.8934566762828E-01	6.8934566762828E-01
6.8953707013089E-01	6.8953707013089E-01	6.8953707013089E-01
6.8972783989681E-01	6.8972783989681E-01	6.8972783989681E-01
6.8991798109563E-01	6.8991798109563E-01	6.8991798109563E-01
6.9010749785590E-01	6.9010749785590E-01	6.9010749785590E-01
6.9029639426560E-01	6.9029639426560E-01	6.9029639426560E-01
6.9048467437270E-01	6.9048467437270E-01	6.9048467437270E-01
6.9067234218569E-01	6.9067234218569E-01	6.9067234218569E-01
6.9085940167407E-01	6.9085940167407E-01	6.9085940167407E-01
6.9104585676886E-01	6.9104585676886E-01	6.9104585676886E-01
6.9123171136312E-01	6.9123171136312E-01	6.9123171136312E-01
6.9141696931238E-01	6.9141696931238E-01	6.9141696931238E-01
6.9160163443520E-01	6.9160163443520E-01	6.9160163443520E-01
6.9178571051356E-01	6.9178571051356E-01	6.9178571051356E-01
6.9196920129338E-01	6.9196920129338E-01	6.9196920129338E-01
6.9215211048498E-01	6.9215211048498E-01	6.9215211048498E-01
6.9233444176347E-01	6.9233444176347E-01	6.9233444176347E-01
6.9251619876927E-01	6.9251619876927E-01	6.9251619876927E-01
6.9269738510849E-01	6.9269738510849E-01	6.9269738510849E-01
6.9287800435339E-01	6.9287800435339E-01	6.9287800435339E-01
6.9305806004278E-01	6.9305806004278E-01	6.9305806004278E-01
6.9323755568248E-01	6.9323755568248E-01	6.9323755568248E-01
6.9341649474565E-01	6.9341649474565E-01	6.9341649474565E-01
6.9359488067328E-01	6.9359488067328E-01	6.9359488067328E-01
6.9377271687452E-01	6.9377271687452E-01	6.9377271687452E-01
6.9395000672713E-01	6.9395000672713E-01	6.9395000672713E-01
6.9412675357781E-01	6.9412675357781E-01	6.9412675357781E-01
6.9430296074261E-01	6.9430296074261E-01	6.9430296074261E-01
6.9447863150730E-01	6.9447863150730E-01	6.9447863150730E-01
6.9465376912772E-01	6.9465376912772E-01	6.9465376912772E-01
6.9482837683018E-01	6.9482837683018E-01	6.9482837683018E-01
6.9500245781177E-01	6.9500245781177E-01	6.9500245781177E-01
6.9517601524074E-01	6.9517601524074E-01	6.9517601524074E-01
6.9534905225685E-01	6.9534905225685E-01	6.9534905225685E-01
6.9552157197170E-01	6.9552157197170E-01	6.9552157197170E-01
6.9569357746904E-01	6.9569357746904E-01	6.9569357746904E-01
6.9586507180517E-01	6.9586507180517E-01	6.9586507180517E-01
6.9603605800918E-01	6.9603605800918E-01	6.9603605800918E-01
6.9620653908334E-01	6.9620653908334E-01	6.9620653908334E-01
6.9637651800340E-01	6.9637651800340E-01	6.9637651800340E-01
6.9654599771886E-01	6.9654599771886E-01	6.9654599771886E-01
6.9671498115333E-01	6.9671498115333E-01	6.9671498115333E-01
6.9688347120480E-01	6.9688347120480E-01	6.9688347120480E-01
6.9705147074598E-01	6.9705147074598E-01	6.9705147074598E-01
6.9721898262451E-01	6.9721898262451E-01	6.9721898262451E-01
6.9738600966336E-01	6.9738600966336E-01	6.9738600966336E-01
6.9755255466102E-01	6.9755255466102E-01	6.9755255466102E-01
6.9771862039184E-01	6.9771862039184E-01	6.9771862039184E-01
6.9788420960628E-01	6.9788420960628E-01	6.9788420960628E-01
6.9804932503118E-01	6.9804932503118E-01	6.9804932503118E-01
6.9821396937007E-01	6.9821396937007E-01	6.9821396937007E-01
6.9837814530338E-01	6.9837814530338E-01	6.9837814530338E-01
6.9854185548874E-01	6.9854185548874E-01	6.9854185548874E-01
6.9870510256121E-01	6.9870510256121E-01	6.9870510256121E-01
6.9886788913357E-01	6.9886788913357E-01	6.9886788913357E-01
6.9903021779655E-01	6.9903021779655E-01	6.9903021779655E-01
6.9919209111906E-01	6.9919209111906E-01	6.9919209111906E-01
6.9935351164846E-01	6.9935351164846E-01	6.9935351164846E-01
6.9951448191081E-01	6.9951448191081E-01	6.9951448191081E-01
6.9967500441108E-01	6.9967500441108E-01	6.9967500441108E-01
6.9983508163338E-01	6.9983508163338E-01	6.9983508163338E-01
6.9999471604122E-01	6.9999471604122E-01	6.9999471604122E-01
7.0015391007772E-01	7.0015391007772E-01	7.0015391007772E-01
7.0031266616584E-01	7.0031266616584E-01	7.0031266616584E-01
7.0047098670859E-01	7.0047098670859E-01	7.0047098670859E-01
7.0062887408925E-01	7.0062887408925E-01	7.0062887408925E-01
7.0078633067162E-01	7.0078633067162E-01	7.0078633067162E-01
7.0094335880017E-01	7.0094335880017E-01	7.0094335880017E-01
7.0109996080031E-01	7.0109996080031E-01	7.0109996080031E-01
7.0125613897854E-01	7.0125613897854E-01	7.0125613897854E-01
7.0141189562272E-01	7.0141189562272E-01	7.0141189562272E-01
7.0156723300221E-01	7.0156723300221E-01	7.0156723300221E-01
7.0172215336810E-01	7.0172215336810E-01	7.0172215336810E-01
7.0187665895340E-01	7.0187665895340E-01	7.0187665895340E-01
7.0203075197322E-01	7.0203075197322E-01	7.0203075197322E-01
7.0218443462500E-01	7.0218443462500E-01	7.0218443462500E-01
7.0233770908864E-01	7.0233770908864E-01	7.0233770908864E-01
7.0249057752673E-01	7.0249057752673E-01	7.0249057752673E-01
7.0264304208473E-01	7.0264304208473E-01	7.0264304208473E-01
7.0279510489113E-01	7.0279510489113E-01	7.0279510489113E-01
7.0294676805762E-01	7.0294676805762E-01	7.0294676805762E-01
7.0309803367932E-01	7.0309803367932E-01	7.0309803367932E-01
7.0324890383489E-01	7.0324890383489E-01	7.0324890383489E-01
7.0339938058674E-01	7.0339938058674E-01	7.0339938058674E-01
7.0354946598118E-01	7.0354946598118E-01	7.0354946598118E-01
7.0369916204861E-01	7.0369916204861E-01	7.0369916204861E-01
7.0384847080367E-01	7.0384847080367E-01	7.0384847080367E-01
7.0399739424538E-01	7.0399739424538E-01	7.0399739424538E-01
7.0414593435734E-01	7.0414593435734E-01	7.0414593435734E-01
7.0429409310788E-01	7.0429409310788E-01	7.0429409310788E-01
