Filmic Resolve - High Contrast.cube
# Filmic High Contrast		
LUT_1D_SIZE 4096		
LUT_1D_INPUT_RANGE 0.000000000 1.000000000		
0.0000000000000E+00	0.0000000000000E+00	0.0000000000000E+00
2.7818000588204E-06	2.7818000588204E-06	2.7818000588204E-06
5.5712862287959E-06	5.5712862287959E-06	5.5712862287959E-06
8.3684797068371E-06	8.3684797068371E-06	8.3684797068371E-06
1.1173401748090E-05	1.1173401748090E-05	1.1173401748090E-05
1.3986073666094E-05	1.3986073666094E-05	1.3986073666094E-05
1.6806516832943E-05	1.6806516832943E-05	1.6806516832943E-05
1.9634752679446E-05	1.9634752679446E-05	1.9634752679446E-05
2.2470802695285E-05	2.2470802695285E-05	2.2470802695285E-05
2.5314688429173E-05	2.5314688429173E-05	2.5314688429173E-05
2.8166431489022E-05	2.8166431489022E-05	2.8166431489022E-05
3.1026053542099E-05	3.1026053542099E-05	3.1026053542099E-05
3.3893576315187E-05	3.3893576315187E-05	3.3893576315187E-05
3.6769021594752E-05	3.6769021594752E-05	3.6769021594752E-05
3.9652411227101E-05	3.9652411227101E-05	3.9652411227101E-05
4.2543767118549E-05	4.2543767118549E-05	4.2543767118549E-05
4.5443111235579E-05	4.5443111235579E-05	4.5443111235579E-05
4.8350465605006E-05	4.8350465605006E-05	4.8350465605006E-05
5.1265852314146E-05	5.1265852314146E-05	5.1265852314146E-05
5.4189293510975E-05	5.4189293510975E-05	5.4189293510975E-05
5.7120811404300E-05	5.7120811404300E-05	5.7120811404300E-05
6.0060428263917E-05	6.0060428263917E-05	6.0060428263917E-05
6.3008166420787E-05	6.3008166420787E-05	6.3008166420787E-05
6.5964048267193E-05	6.5964048267193E-05	6.5964048267193E-05
6.8928096256914E-05	6.8928096256914E-05	6.8928096256914E-05
7.1900332905389E-05	7.1900332905389E-05	7.1900332905389E-05
7.4880780789886E-05	7.4880780789886E-05	7.4880780789886E-05
7.7869462549671E-05	7.7869462549671E-05	7.7869462549671E-05
8.0866400886175E-05	8.0866400886175E-05	8.0866400886175E-05
8.3871618563166E-05	8.3871618563166E-05	8.3871618563166E-05
8.6885138406915E-05	8.6885138406915E-05	8.6885138406915E-05
8.9906983306369E-05	8.9906983306369E-05	8.9906983306369E-05
9.2937176213323E-05	9.2937176213323E-05	9.2937176213323E-05
9.5975740142587E-05	9.5975740142587E-05	9.5975740142587E-05
9.9022698172160E-05	9.9022698172160E-05	9.9022698172160E-05
1.0207807344340E-04	1.0207807344340E-04	1.0207807344340E-04
1.0514188916121E-04	1.0514188916121E-04	1.0514188916121E-04
1.0821416859418E-04	1.0821416859418E-04	1.0821416859418E-04
1.1129493507479E-04	1.1129493507479E-04	1.1129493507479E-04
1.1438421199958E-04	1.1438421199958E-04	1.1438421199958E-04
1.1748202282931E-04	1.1748202282931E-04	1.1748202282931E-04
1.2058839108913E-04	1.2058839108913E-04	1.2058839108913E-04
1.2370334036880E-04	1.2370334036880E-04	1.2370334036880E-04
1.2682689432280E-04	1.2682689432280E-04	1.2682689432280E-04
1.2995907667056E-04	1.2995907667056E-04	1.2995907667056E-04
1.3309991119662E-04	1.3309991119662E-04	1.3309991119662E-04
1.3624942175079E-04	1.3624942175079E-04	1.3624942175079E-04
1.3940763224835E-04	1.3940763224835E-04	1.3940763224835E-04
1.4257456667020E-04	1.4257456667020E-04	1.4257456667020E-04
1.4575024906310E-04	1.4575024906310E-04	1.4575024906310E-04
1.4893470353977E-04	1.4893470353977E-04	1.4893470353977E-04
1.5212795427912E-04	1.5212795427912E-04	1.5212795427912E-04
1.5533002552641E-04	1.5533002552641E-04	1.5533002552641E-04
1.5854094159344E-04	1.5854094159344E-04	1.5854094159344E-04
1.6176072685875E-04	1.6176072685875E-04	1.6176072685875E-04
1.6498940576775E-04	1.6498940576775E-04	1.6498940576775E-04
1.6822700283294E-04	1.6822700283294E-04	1.6822700283294E-04
1.7147354263409E-04	1.7147354263409E-04	1.7147354263409E-04
1.7472904981841E-04	1.7472904981841E-04	1.7472904981841E-04
1.7799354910075E-04	1.7799354910075E-04	1.7799354910075E-04
1.8126706526377E-04	1.8126706526377E-04	1.8126706526377E-04
1.8454962315812E-04	1.8454962315812E-04	1.8454962315812E-04
1.8784124770264E-04	1.8784124770264E-04	1.8784124770264E-04
1.9114196388455E-04	1.9114196388455E-04	1.9114196388455E-04
1.9445179675961E-04	1.9445179675961E-04	1.9445179675961E-04
1.9777077145232E-04	1.9777077145232E-04	1.9777077145232E-04
2.0109891315613E-04	2.0109891315613E-04	2.0109891315613E-04
2.0443624713358E-04	2.0443624713358E-04	2.0443624713358E-04
2.0778279871652E-04	2.0778279871652E-04	2.0778279871652E-04
2.1113859330630E-04	2.1113859330630E-04	2.1113859330630E-04
2.1450365637395E-04	2.1450365637395E-04	2.1450365637395E-04
2.1787801346036E-04	2.1787801346036E-04	2.1787801346036E-04
2.2126169017649E-04	2.2126169017649E-04	2.2126169017649E-04
2.2465471220354E-04	2.2465471220354E-04	2.2465471220354E-04
2.2805710529316E-04	2.2805710529316E-04	2.2805710529316E-04
2.3146889526764E-04	2.3146889526764E-04	2.3146889526764E-04
2.3489010802007E-04	2.3489010802007E-04	2.3489010802007E-04
2.3832076951457E-04	2.3832076951457E-04	2.3832076951457E-04
2.4176090578649E-04	2.4176090578649E-04	2.4176090578649E-04
2.4521054294254E-04	2.4521054294254E-04	2.4521054294254E-04
2.4866970716107E-04	2.4866970716107E-04	2.4866970716107E-04
2.5213842469220E-04	2.5213842469220E-04	2.5213842469220E-04
2.5561672185803E-04	2.5561672185803E-04	2.5561672185803E-04
2.5910462505287E-04	2.5910462505287E-04	2.5910462505287E-04
2.6260216074337E-04	2.6260216074337E-04	2.6260216074337E-04
2.6610935546878E-04	2.6610935546878E-04	2.6610935546878E-04
2.6962623584113E-04	2.6962623584113E-04	2.6962623584113E-04
2.7315282854540E-04	2.7315282854540E-04	2.7315282854540E-04
2.7668916033974E-04	2.7668916033974E-04	2.7668916033974E-04
2.8023525805568E-04	2.8023525805568E-04	2.8023525805568E-04
2.8379114859830E-04	2.8379114859830E-04	2.8379114859830E-04
2.8735685894644E-04	2.8735685894644E-04	2.8735685894644E-04
2.9093241615294E-04	2.9093241615294E-04	2.9093241615294E-04
2.9451784734477E-04	2.9451784734477E-04	2.9451784734477E-04
2.9811317972328E-04	2.9811317972328E-04	2.9811317972328E-04
3.0171844056439E-04	3.0171844056439E-04	3.0171844056439E-04
3.0533365721880E-04	3.0533365721880E-04	3.0533365721880E-04
3.0895885711217E-04	3.0895885711217E-04	3.0895885711217E-04
3.1259406774535E-04	3.1259406774535E-04	3.1259406774535E-04
3.1623931669456E-04	3.1623931669456E-04	3.1623931669456E-04
3.1989463161161E-04	3.1989463161161E-04	3.1989463161161E-04
3.2356004022412E-04	3.2356004022412E-04	3.2356004022412E-04
3.2723557033568E-04	3.2723557033568E-04	3.2723557033568E-04
3.3092124982611E-04	3.3092124982611E-04	3.3092124982611E-04
3.3461710665161E-04	3.3461710665161E-04	3.3461710665161E-04
3.3832316884503E-04	3.3832316884503E-04	3.3832316884503E-04
3.4203946451602E-04	3.4203946451602E-04	3.4203946451602E-04
3.4576602185128E-04	3.4576602185128E-04	3.4576602185128E-04
3.4950286911474E-04	3.4950286911474E-04	3.4950286911474E-04
3.5325003464780E-04	3.5325003464780E-04	3.5325003464780E-04
3.5700754686950E-04	3.5700754686950E-04	3.5700754686950E-04
3.6077543427678E-04	3.6077543427678E-04	3.6077543427678E-04
3.6455372544463E-04	3.6455372544463E-04	3.6455372544463E-04
3.6834244902636E-04	3.6834244902636E-04	3.6834244902636E-04
3.7214163375378E-04	3.7214163375378E-04	3.7214163375378E-04
3.7595130843744E-04	3.7595130843744E-04	3.7595130843744E-04
3.7977150196678E-04	3.7977150196678E-04	3.7977150196678E-04
3.8360224331044E-04	3.8360224331044E-04	3.8360224331044E-04
3.8744356151639E-04	3.8744356151639E-04	3.8744356151639E-04
3.9129548571218E-04	3.9129548571218E-04	3.9129548571218E-04
3.9515804510517E-04	3.9515804510517E-04	3.9515804510517E-04
3.9903126898271E-04	3.9903126898271E-04	3.9903126898271E-04
4.0291518671240E-04	4.0291518671240E-04	4.0291518671240E-04
4.0680982774226E-04	4.0680982774226E-04	4.0680982774226E-04
4.1071522160099E-04	4.1071522160099E-04	4.1071522160099E-04
4.1463139789816E-04	4.1463139789816E-04	4.1463139789816E-04
4.1855838632445E-04	4.1855838632445E-04	4.1855838632445E-04
4.2249621665184E-04	4.2249621665184E-04	4.2249621665184E-04
4.2644491873387E-04	4.2644491873387E-04	4.2644491873387E-04
4.3040452250583E-04	4.3040452250583E-04	4.3040452250583E-04
4.3437505798501E-04	4.3437505798501E-04	4.3437505798501E-04
4.3835655527087E-04	4.3835655527087E-04	4.3835655527087E-04
4.4234904454532E-04	4.4234904454532E-04	4.4234904454532E-04
4.4635255607293E-04	4.4635255607293E-04	4.4635255607293E-04
4.5036712020112E-04	4.5036712020112E-04	4.5036712020112E-04
4.5439276736042E-04	4.5439276736042E-04	4.5439276736042E-04
4.5842952806469E-04	4.5842952806469E-04	4.5842952806469E-04
4.6247743291131E-04	4.6247743291131E-04	4.6247743291131E-04
4.6653651258148E-04	4.6653651258148E-04	4.6653651258148E-04
4.7060679784036E-04	4.7060679784036E-04	4.7060679784036E-04
4.7468831953736E-04	4.7468831953736E-04	4.7468831953736E-04
4.7878110860635E-04	4.7878110860635E-04	4.7878110860635E-04
4.8288519606588E-04	4.8288519606588E-04	4.8288519606588E-04
4.8700061301941E-04	4.8700061301941E-04	4.8700061301941E-04
4.9112739065555E-04	4.9112739065555E-04	4.9112739065555E-04
4.9526556024829E-04	4.9526556024829E-04	4.9526556024829E-04
4.9941515315721E-04	4.9941515315721E-04	4.9941515315721E-04
5.0357620082776E-04	5.0357620082776E-04	5.0357620082776E-04
5.0774873479141E-04	5.0774873479141E-04	5.0774873479141E-04
5.1193278666599E-04	5.1193278666599E-04	5.1193278666599E-04
5.1612838815582E-04	5.1612838815582E-04	5.1612838815582E-04
5.2033557105201E-04	5.2033557105201E-04	5.2033557105201E-04
5.2455436723269E-04	5.2455436723269E-04	5.2455436723269E-04
5.2878480866320E-04	5.2878480866320E-04	5.2878480866320E-04
5.3302692739637E-04	5.3302692739637E-04	5.3302692739637E-04
5.3728075557275E-04	5.3728075557275E-04	5.3728075557275E-04
5.4154632542084E-04	5.4154632542084E-04	5.4154632542084E-04
5.4582366925731E-04	5.4582366925731E-04	5.4582366925731E-04
5.5011281948728E-04	5.5011281948728E-04	5.5011281948728E-04
5.5441380860452E-04	5.5441380860452E-04	5.5441380860452E-04
5.5872666919171E-04	5.5872666919171E-04	5.5872666919171E-04
5.6305143392067E-04	5.6305143392067E-04	5.6305143392067E-04
5.6738813555262E-04	5.6738813555262E-04	5.6738813555262E-04
5.7173680693840E-04	5.7173680693840E-04	5.7173680693840E-04
5.7609748101872E-04	5.7609748101872E-04	5.7609748101872E-04
5.8047019082440E-04	5.8047019082440E-04	5.8047019082440E-04
5.8485496947662E-04	5.8485496947662E-04	5.8485496947662E-04
5.8925185018717E-04	5.8925185018717E-04	5.8925185018717E-04
5.9366086625867E-04	5.9366086625867E-04	5.9366086625867E-04
5.9808205108484E-04	5.9808205108484E-04	5.9808205108484E-04
6.0251543815074E-04	6.0251543815074E-04	6.0251543815074E-04
6.0696106103301E-04	6.0696106103301E-04	6.0696106103301E-04
6.1141895340011E-04	6.1141895340011E-04	6.1141895340011E-04
6.1588914901260E-04	6.1588914901260E-04	6.1588914901260E-04
6.2037168172336E-04	6.2037168172336E-04	6.2037168172336E-04
6.2486658547785E-04	6.2486658547785E-04	6.2486658547785E-04
6.2937389431435E-04	6.2937389431435E-04	6.2937389431435E-04
6.3389364236421E-04	6.3389364236421E-04	6.3389364236421E-04
6.3842586385214E-04	6.3842586385214E-04	6.3842586385214E-04
6.4297059309640E-04	6.4297059309640E-04	6.4297059309640E-04
6.4752786450911E-04	6.4752786450911E-04	6.4752786450911E-04
6.5209771259646E-04	6.5209771259646E-04	6.5209771259646E-04
6.5668017195898E-04	6.5668017195898E-04	6.5668017195898E-04
6.6127527729180E-04	6.6127527729180E-04	6.6127527729180E-04
6.6588306338492E-04	6.6588306338492E-04	6.6588306338492E-04
6.7050356512341E-04	6.7050356512341E-04	6.7050356512341E-04
6.7513681748774E-04	6.7513681748774E-04	6.7513681748774E-04
6.7978285555398E-04	6.7978285555398E-04	6.7978285555398E-04
6.8444171449408E-04	6.8444171449408E-04	6.8444171449408E-04
6.8911342957615E-04	6.8911342957615E-04	6.8911342957615E-04
6.9379803616466E-04	6.9379803616466E-04	6.9379803616466E-04
6.9849556972077E-04	6.9849556972077E-04	6.9849556972077E-04
7.0320606580254E-04	7.0320606580254E-04	7.0320606580254E-04
7.0792956006522E-04	7.0792956006522E-04	7.0792956006522E-04
7.1266608826149E-04	7.1266608826149E-04	7.1266608826149E-04
7.1741568624175E-04	7.1741568624175E-04	7.1741568624175E-04
7.2217838995435E-04	7.2217838995435E-04	7.2217838995435E-04
7.2695423544589E-04	7.2695423544589E-04	7.2695423544589E-04
7.3174325886145E-04	7.3174325886145E-04	7.3174325886145E-04
7.3654549644489E-04	7.3654549644489E-04	7.3654549644489E-04
7.4136098453907E-04	7.4136098453907E-04	7.4136098453907E-04
7.4618975958619E-04	7.4618975958619E-04	7.4618975958619E-04
7.5103185812796E-04	7.5103185812796E-04	7.5103185812796E-04
7.5588731680597E-04	7.5588731680597E-04	7.5588731680597E-04
7.6075617236187E-04	7.6075617236187E-04	7.6075617236187E-04
7.6563846163772E-04	7.6563846163772E-04	7.6563846163772E-04
7.7053422157619E-04	7.7053422157619E-04	7.7053422157619E-04
7.7544348922087E-04	7.7544348922087E-04	7.7544348922087E-04
7.8036630171653E-04	7.8036630171653E-04	7.8036630171653E-04
7.8530269630942E-04	7.8530269630942E-04	7.8530269630942E-04
7.9025271034748E-04	7.9025271034748E-04	7.9025271034748E-04
7.9521638128070E-04	7.9521638128070E-04	7.9521638128070E-04
8.0019374666130E-04	8.0019374666130E-04	8.0019374666130E-04
8.0518484414409E-04	8.0518484414409E-04	8.0518484414409E-04
8.1018971148669E-04	8.1018971148669E-04	8.1018971148669E-04
8.1520838654985E-04	8.1520838654985E-04	8.1520838654985E-04
8.2024090729766E-04	8.2024090729766E-04	8.2024090729766E-04
8.2528731179793E-04	8.2528731179793E-04	8.2528731179793E-04
8.3034763822236E-04	8.3034763822236E-04	8.3034763822236E-04
8.3542192484691E-04	8.3542192484691E-04	8.3542192484691E-04
8.4051021005203E-04	8.4051021005203E-04	8.4051021005203E-04
8.4561253232293E-04	8.4561253232293E-04	8.4561253232293E-04
8.5072893024991E-04	8.5072893024991E-04	8.5072893024991E-04
8.5585944252863E-04	8.5585944252863E-04	8.5585944252863E-04
8.6100410796035E-04	8.6100410796035E-04	8.6100410796035E-04
8.6616296545226E-04	8.6616296545226E-04	8.6616296545226E-04
8.7133605401776E-04	8.7133605401776E-04	8.7133605401776E-04
8.7652341277673E-04	8.7652341277673E-04	8.7652341277673E-04
8.8172508095580E-04	8.8172508095580E-04	8.8172508095580E-04
8.8694109788870E-04	8.8694109788870E-04	8.8694109788870E-04
8.9217150301647E-04	8.9217150301647E-04	8.9217150301647E-04
8.9741633588782E-04	8.9741633588782E-04	8.9741633588782E-04
9.0267563615937E-04	9.0267563615937E-04	9.0267563615937E-04
9.0794944359595E-04	9.0794944359595E-04	9.0794944359595E-04
9.1323779807090E-04	9.1323779807090E-04	9.1323779807090E-04
9.1854073956637E-04	9.1854073956637E-04	9.1854073956637E-04
9.2385830817359E-04	9.2385830817359E-04	9.2385830817359E-04
9.2919054409318E-04	9.2919054409318E-04	9.2919054409318E-04
9.3453748763543E-04	9.3453748763543E-04	9.3453748763543E-04
9.3989917922062E-04	9.3989917922062E-04	9.3989917922062E-04
9.4527565937928E-04	9.4527565937928E-04	9.4527565937928E-04
9.5066696875251E-04	9.5066696875251E-04	9.5066696875251E-04
9.5607314809229E-04	9.5607314809229E-04	9.5607314809229E-04
9.6149423826173E-04	9.6149423826173E-04	9.6149423826173E-04
9.6693028023541E-04	9.6693028023541E-04	9.6693028023541E-04
9.7238131509969E-04	9.7238131509969E-04	9.7238131509969E-04
9.7784738405295E-04	9.7784738405295E-04	9.7784738405295E-04
9.8332852840596E-04	9.8332852840596E-04	9.8332852840596E-04
9.8882478958213E-04	9.8882478958213E-04	9.8882478958213E-04
9.9433620911784E-04	9.9433620911784E-04	9.9433620911784E-04
9.9986282866275E-04	9.9986282866275E-04	9.9986282866275E-04
1.0054046899801E-03	1.0054046899801E-03	1.0054046899801E-03
1.0109618349469E-03	1.0109618349469E-03	1.0109618349469E-03
1.0165343055545E-03	1.0165343055545E-03	1.0165343055545E-03
1.0221221439086E-03	1.0221221439086E-03	1.0221221439086E-03
1.0277253922299E-03	1.0277253922299E-03	1.0277253922299E-03
1.0333440928539E-03	1.0333440928539E-03	1.0333440928539E-03
1.0389782882317E-03	1.0389782882317E-03	1.0389782882317E-03
1.0446280209301E-03	1.0446280209301E-03	1.0446280209301E-03
1.0502933336320E-03	1.0502933336320E-03	1.0502933336320E-03
1.0559742691364E-03	1.0559742691364E-03	1.0559742691364E-03
1.0616708703593E-03	1.0616708703593E-03	1.0616708703593E-03
1.0673831803335E-03	1.0673831803335E-03	1.0673831803335E-03
1.0731112422089E-03	1.0731112422089E-03	1.0731112422089E-03
1.0788550992532E-03	1.0788550992532E-03	1.0788550992532E-03
1.0846147948521E-03	1.0846147948521E-03	1.0846147948521E-03
1.0903903725093E-03	1.0903903725093E-03	1.0903903725093E-03
1.0961818758472E-03	1.0961818758472E-03	1.0961818758472E-03
1.1019893486070E-03	1.1019893486070E-03	1.1019893486070E-03
1.1078128346491E-03	1.1078128346491E-03	1.1078128346491E-03
1.1136523779533E-03	1.1136523779533E-03	1.1136523779533E-03
1.1195080226194E-03	1.1195080226194E-03	1.1195080226194E-03
1.1253798128673E-03	1.1253798128673E-03	1.1253798128673E-03
1.1312677930372E-03	1.1312677930372E-03	1.1312677930372E-03
1.1371720075902E-03	1.1371720075902E-03	1.1371720075902E-03
1.1430925011087E-03	1.1430925011087E-03	1.1430925011087E-03
1.1490293182961E-03	1.1490293182961E-03	1.1490293182961E-03
1.1549825039779E-03	1.1549825039779E-03	1.1549825039779E-03
1.1609521031017E-03	1.1609521031017E-03	1.1609521031017E-03
1.1669381607372E-03	1.1669381607372E-03	1.1669381607372E-03
1.1729407220772E-03	1.1729407220772E-03	1.1729407220772E-03
1.1789598324373E-03	1.1789598324373E-03	1.1789598324373E-03
1.1849955372567E-03	1.1849955372567E-03	1.1849955372567E-03
1.1910478820982E-03	1.1910478820982E-03	1.1910478820982E-03
1.1971169126487E-03	1.1971169126487E-03	1.1971169126487E-03
1.2032026747194E-03	1.2032026747194E-03	1.2032026747194E-03
1.2093052142464E-03	1.2093052142464E-03	1.2093052142464E-03
1.2154245772908E-03	1.2154245772908E-03	1.2154245772908E-03
1.2215608100389E-03	1.2215608100389E-03	1.2215608100389E-03
1.2277139588031E-03	1.2277139588031E-03	1.2277139588031E-03
1.2338840700214E-03	1.2338840700214E-03	1.2338840700214E-03
1.2400711902587E-03	1.2400711902587E-03	1.2400711902587E-03
1.2462753662063E-03	1.2462753662063E-03	1.2462753662063E-03
1.2524966446826E-03	1.2524966446826E-03	1.2524966446826E-03
1.2587350726336E-03	1.2587350726336E-03	1.2587350726336E-03
1.2649906971328E-03	1.2649906971328E-03	1.2649906971328E-03
1.2712635653821E-03	1.2712635653821E-03	1.2712635653821E-03
1.2775537247116E-03	1.2775537247116E-03	1.2775537247116E-03
1.2838612225803E-03	1.2838612225803E-03	1.2838612225803E-03
1.2901861065763E-03	1.2901861065763E-03	1.2901861065763E-03
1.2965284244172E-03	1.2965284244172E-03	1.2965284244172E-03
1.3028882239504E-03	1.3028882239504E-03	1.3028882239504E-03
1.3092655531534E-03	1.3092655531534E-03	1.3092655531534E-03
1.3156604601344E-03	1.3156604601344E-03	1.3156604601344E-03
1.3220729931323E-03	1.3220729931323E-03	1.3220729931323E-03
1.3285032005172E-03	1.3285032005172E-03	1.3285032005172E-03
1.3349511307909E-03	1.3349511307909E-03	1.3349511307909E-03
1.3414168325871E-03	1.3414168325871E-03	1.3414168325871E-03
1.3479003546715E-03	1.3479003546715E-03	1.3479003546715E-03
1.3544017459429E-03	1.3544017459429E-03	1.3544017459429E-03
1.3609210554326E-03	1.3609210554326E-03	1.3609210554326E-03
1.3674583323055E-03	1.3674583323055E-03	1.3674583323055E-03
1.3740136258601E-03	1.3740136258601E-03	1.3740136258601E-03
1.3805869855290E-03	1.3805869855290E-03	1.3805869855290E-03
1.3871784608792E-03	1.3871784608792E-03	1.3871784608792E-03
1.3937881016124E-03	1.3937881016124E-03	1.3937881016124E-03
1.4004159575654E-03	1.4004159575654E-03	1.4004159575654E-03
1.4070620787105E-03	1.4070620787105E-03	1.4070620787105E-03
1.4137265151560E-03	1.4137265151560E-03	1.4137265151560E-03
1.4204093171461E-03	1.4204093171461E-03	1.4204093171461E-03
1.4271105350617E-03	1.4271105350617E-03	1.4271105350617E-03
1.4338302194209E-03	1.4338302194209E-03	1.4338302194209E-03
1.4405684208786E-03	1.4405684208786E-03	1.4405684208786E-03
1.4473251902277E-03	1.4473251902277E-03	1.4473251902277E-03
1.4541005783991E-03	1.4541005783991E-03	1.4541005783991E-03
1.4608946364620E-03	1.4608946364620E-03	1.4608946364620E-03
1.4677074156243E-03	1.4677074156243E-03	1.4677074156243E-03
1.4745389672332E-03	1.4745389672332E-03	1.4745389672332E-03
1.4813893427754E-03	1.4813893427754E-03	1.4813893427754E-03
1.4882585938774E-03	1.4882585938774E-03	1.4882585938774E-03
1.4951467723059E-03	1.4951467723059E-03	1.4951467723059E-03
1.5020539299683E-03	1.5020539299683E-03	1.5020539299683E-03
1.5089801189130E-03	1.5089801189130E-03	1.5089801189130E-03
1.5159253913297E-03	1.5159253913297E-03	1.5159253913297E-03
1.5228897995500E-03	1.5228897995500E-03	1.5228897995500E-03
1.5298733960474E-03	1.5298733960474E-03	1.5298733960474E-03
1.5368762334382E-03	1.5368762334382E-03	1.5368762334382E-03
1.5438983644813E-03	1.5438983644813E-03	1.5438983644813E-03
1.5509398420789E-03	1.5509398420789E-03	1.5509398420789E-03
1.5580007192772E-03	1.5580007192772E-03	1.5580007192772E-03
1.5650810492659E-03	1.5650810492659E-03	1.5650810492659E-03
1.5721808853794E-03	1.5721808853794E-03	1.5721808853794E-03
1.5793002810970E-03	1.5793002810970E-03	1.5793002810970E-03
1.5864392900429E-03	1.5864392900429E-03	1.5864392900429E-03
1.5935979659871E-03	1.5935979659871E-03	1.5935979659871E-03
1.6007763628453E-03	1.6007763628453E-03	1.6007763628453E-03
1.6079745346799E-03	1.6079745346799E-03	1.6079745346799E-03
1.6151925356997E-03	1.6151925356997E-03	1.6151925356997E-03
1.6224304202608E-03	1.6224304202608E-03	1.6224304202608E-03
1.6296882428668E-03	1.6296882428668E-03	1.6296882428668E-03
1.6369660581690E-03	1.6369660581690E-03	1.6369660581690E-03
1.6442639209674E-03	1.6442639209674E-03	1.6442639209674E-03
1.6515818862102E-03	1.6515818862102E-03	1.6515818862102E-03
1.6589200089951E-03	1.6589200089951E-03	1.6589200089951E-03
1.6662783445691E-03	1.6662783445691E-03	1.6662783445691E-03
1.6736569483290E-03	1.6736569483290E-03	1.6736569483290E-03
1.6810558758221E-03	1.6810558758221E-03	1.6810558758221E-03
1.6884751827461E-03	1.6884751827461E-03	1.6884751827461E-03
1.6959149249501E-03	1.6959149249501E-03	1.6959149249501E-03
1.7033751584344E-03	1.7033751584344E-03	1.7033751584344E-03
1.7108559393513E-03	1.7108559393513E-03	1.7108559393513E-03
1.7183573240053E-03	1.7183573240053E-03	1.7183573240053E-03
1.7258793688537E-03	1.7258793688537E-03	1.7258793688537E-03
1.7334221305068E-03	1.7334221305068E-03	1.7334221305068E-03
1.7409856657286E-03	1.7409856657286E-03	1.7409856657286E-03
1.7485700314366E-03	1.7485700314366E-03	1.7485700314366E-03
1.7561752847029E-03	1.7561752847029E-03	1.7561752847029E-03
1.7638014827545E-03	1.7638014827545E-03	1.7638014827545E-03
1.7714486829730E-03	1.7714486829730E-03	1.7714486829730E-03
1.7791169428960E-03	1.7791169428960E-03	1.7791169428960E-03
1.7868063202170E-03	1.7868063202170E-03	1.7868063202170E-03
1.7945168727856E-03	1.7945168727856E-03	1.7945168727856E-03
1.8022486586084E-03	1.8022486586084E-03	1.8022486586084E-03
1.8100017358492E-03	1.8100017358492E-03	1.8100017358492E-03
1.8177761628294E-03	1.8177761628294E-03	1.8177761628294E-03
1.8255719980283E-03	1.8255719980283E-03	1.8255719980283E-03
1.8333893000839E-03	1.8333893000839E-03	1.8333893000839E-03
1.8412281277929E-03	1.8412281277929E-03	1.8412281277929E-03
1.8490885401112E-03	1.8490885401112E-03	1.8490885401112E-03
1.8569705961547E-03	1.8569705961547E-03	1.8569705961547E-03
1.8648743551992E-03	1.8648743551992E-03	1.8648743551992E-03
1.8727998766811E-03	1.8727998766811E-03	1.8727998766811E-03
1.8807472201979E-03	1.8807472201979E-03	1.8807472201979E-03
1.8887164455084E-03	1.8887164455084E-03	1.8887164455084E-03
1.8967076125333E-03	1.8967076125333E-03	1.8967076125333E-03
1.9047207813555E-03	1.9047207813555E-03	1.9047207813555E-03
1.9127560122207E-03	1.9127560122207E-03	1.9127560122207E-03
1.9208133655377E-03	1.9208133655377E-03	1.9208133655377E-03
1.9288929018787E-03	1.9288929018787E-03	1.9288929018787E-03
1.9369946819801E-03	1.9369946819801E-03	1.9369946819801E-03
1.9451187667427E-03	1.9451187667427E-03	1.9451187667427E-03
