Filmic Resolve - Medium Low Contrast.cube
# Filmic Medium Low Contrast		
LUT_1D_SIZE 4096		
LUT_1D_INPUT_RANGE 0.000000000 1.000000000		
0.0000000000000E+00	0.0000000000000E+00	0.0000000000000E+00
2.2547506131860E-05	2.2547506131860E-05	2.2547506131860E-05
4.5132073901206E-05	4.5132073901206E-05	4.5132073901206E-05
6.7753762938042E-05	6.7753762938042E-05	6.7753762938042E-05
9.0412632963947E-05	9.0412632963947E-05	9.0412632963947E-05
1.1310874379219E-04	1.1310874379219E-04	1.1310874379219E-04
1.3584215532786E-04	1.3584215532786E-04	1.3584215532786E-04
1.5861292756800E-04	1.5861292756800E-04	1.5861292756800E-04
1.8142112060171E-04	1.8142112060171E-04	1.8142112060171E-04
2.0426679461029E-04	2.0426679461029E-04	2.0426679461029E-04
2.2715000986738E-04	2.2715000986738E-04	2.2715000986738E-04
2.5007082673907E-04	2.5007082673907E-04	2.5007082673907E-04
2.7302930568399E-04	2.7302930568399E-04	2.7302930568399E-04
2.9602550725352E-04	2.9602550725352E-04	2.9602550725352E-04
3.1905949209184E-04	3.1905949209184E-04	3.1905949209184E-04
3.4213132093611E-04	3.4213132093611E-04	3.4213132093611E-04
3.6524105461655E-04	3.6524105461655E-04	3.6524105461655E-04
3.8838875405662E-04	3.8838875405662E-04	3.8838875405662E-04
4.1157448027309E-04	4.1157448027309E-04	4.1157448027309E-04
4.3479829437621E-04	4.3479829437621E-04	4.3479829437621E-04
4.5806025756983E-04	4.5806025756983E-04	4.5806025756983E-04
4.8136043115151E-04	4.8136043115151E-04	4.8136043115151E-04
5.0469887651266E-04	5.0469887651266E-04	5.0469887651266E-04
5.2807565513868E-04	5.2807565513868E-04	5.2807565513868E-04
5.5149082860905E-04	5.5149082860905E-04	5.5149082860905E-04
5.7494445859749E-04	5.7494445859749E-04	5.7494445859749E-04
5.9843660687211E-04	5.9843660687211E-04	5.9843660687211E-04
6.2196733529546E-04	6.2196733529546E-04	6.2196733529546E-04
6.4553670582475E-04	6.4553670582475E-04	6.4553670582475E-04
6.6914478051192E-04	6.6914478051192E-04	6.6914478051192E-04
6.9279162150377E-04	6.9279162150377E-04	6.9279162150377E-04
7.1647729104213E-04	7.1647729104213E-04	7.1647729104213E-04
7.4020185146394E-04	7.4020185146394E-04	7.4020185146394E-04
7.6396536520142E-04	7.6396536520142E-04	7.6396536520142E-04
7.8776789478217E-04	7.8776789478217E-04	7.8776789478217E-04
8.1160950282930E-04	8.1160950282930E-04	8.1160950282930E-04
8.3549025206159E-04	8.3549025206159E-04	8.3549025206159E-04
8.5941020529359E-04	8.5941020529359E-04	8.5941020529359E-04
8.8336942543575E-04	8.8336942543575E-04	8.8336942543575E-04
9.0736797549456E-04	9.0736797549456E-04	9.0736797549456E-04
9.3140591857269E-04	9.3140591857269E-04	9.3140591857269E-04
9.5548331786910E-04	9.5548331786910E-04	9.5548331786910E-04
9.7960023667917E-04	9.7960023667917E-04	9.7960023667917E-04
1.0037567383949E-03	1.0037567383949E-03	1.0037567383949E-03
1.0279528865048E-03	1.0279528865048E-03	1.0279528865048E-03
1.0521887445944E-03	1.0521887445944E-03	1.0521887445944E-03
1.0764643763461E-03	1.0764643763461E-03	1.0764643763461E-03
1.1007798455393E-03	1.1007798455393E-03	1.1007798455393E-03
1.1251352160509E-03	1.1251352160509E-03	1.1251352160509E-03
1.1495305518547E-03	1.1495305518547E-03	1.1495305518547E-03
1.1739659170223E-03	1.1739659170223E-03	1.1739659170223E-03
1.1984413757228E-03	1.1984413757228E-03	1.1984413757228E-03
1.2229569922231E-03	1.2229569922231E-03	1.2229569922231E-03
1.2475128308878E-03	1.2475128308878E-03	1.2475128308878E-03
1.2721089561796E-03	1.2721089561796E-03	1.2721089561796E-03
1.2967454326595E-03	1.2967454326595E-03	1.2967454326595E-03
1.3214223249864E-03	1.3214223249864E-03	1.3214223249864E-03
1.3461396979179E-03	1.3461396979179E-03	1.3461396979179E-03
1.3708976163099E-03	1.3708976163099E-03	1.3708976163099E-03
1.3956961451172E-03	1.3956961451172E-03	1.3956961451172E-03
1.4205353493932E-03	1.4205353493932E-03	1.4205353493932E-03
1.4454152942902E-03	1.4454152942902E-03	1.4454152942902E-03
1.4703360450598E-03	1.4703360450598E-03	1.4703360450598E-03
1.4952976670524E-03	1.4952976670524E-03	1.4952976670524E-03
1.5203002257181E-03	1.5203002257181E-03	1.5203002257181E-03
1.5453437866062E-03	1.5453437866062E-03	1.5453437866062E-03
1.5704284153657E-03	1.5704284153657E-03	1.5704284153657E-03
1.5955541777452E-03	1.5955541777452E-03	1.5955541777452E-03
1.6207211395934E-03	1.6207211395934E-03	1.6207211395934E-03
1.6459293668586E-03	1.6459293668586E-03	1.6459293668586E-03
1.6711789255896E-03	1.6711789255896E-03	1.6711789255896E-03
1.6964698819352E-03	1.6964698819352E-03	1.6964698819352E-03
1.7218023021447E-03	1.7218023021447E-03	1.7218023021447E-03
1.7471762525678E-03	1.7471762525678E-03	1.7471762525678E-03
1.7725917996550E-03	1.7725917996550E-03	1.7725917996550E-03
1.7980490099575E-03	1.7980490099575E-03	1.7980490099575E-03
1.8235479501274E-03	1.8235479501274E-03	1.8235479501274E-03
1.8490886869179E-03	1.8490886869179E-03	1.8490886869179E-03
1.8746712871834E-03	1.8746712871834E-03	1.8746712871834E-03
1.9002958178795E-03	1.9002958178795E-03	1.9002958178795E-03
1.9259623460634E-03	1.9259623460634E-03	1.9259623460634E-03
1.9516709388939E-03	1.9516709388939E-03	1.9516709388939E-03
1.9774216636313E-03	1.9774216636313E-03	1.9774216636313E-03
2.0032145876379E-03	2.0032145876379E-03	2.0032145876379E-03
2.0290497783782E-03	2.0290497783782E-03	2.0290497783782E-03
2.0549273034185E-03	2.0549273034185E-03	2.0549273034185E-03
2.0808472304275E-03	2.0808472304275E-03	2.0808472304275E-03
2.1068096271763E-03	2.1068096271763E-03	2.1068096271763E-03
2.1328145615386E-03	2.1328145615386E-03	2.1328145615386E-03
2.1588621014906E-03	2.1588621014906E-03	2.1588621014906E-03
2.1849523151114E-03	2.1849523151114E-03	2.1849523151114E-03
2.2110852705831E-03	2.2110852705831E-03	2.2110852705831E-03
2.2372610361908E-03	2.2372610361908E-03	2.2372610361908E-03
2.2634796803229E-03	2.2634796803229E-03	2.2634796803229E-03
2.2897412714709E-03	2.2897412714709E-03	2.2897412714709E-03
2.3160458782300E-03	2.3160458782300E-03	2.3160458782300E-03
2.3423935692991E-03	2.3423935692991E-03	2.3423935692991E-03
2.3687844134807E-03	2.3687844134807E-03	2.3687844134807E-03
2.3952184796811E-03	2.3952184796811E-03	2.3952184796811E-03
2.4216958369109E-03	2.4216958369109E-03	2.4216958369109E-03
2.4482165542847E-03	2.4482165542847E-03	2.4482165542847E-03
2.4747807010214E-03	2.4747807010214E-03	2.4747807010214E-03
2.5013883464442E-03	2.5013883464442E-03	2.5013883464442E-03
2.5280395599813E-03	2.5280395599813E-03	2.5280395599813E-03
2.5547344111652E-03	2.5547344111652E-03	2.5547344111652E-03
2.5814729696334E-03	2.5814729696334E-03	2.5814729696334E-03
2.6082553051284E-03	2.6082553051284E-03	2.6082553051284E-03
2.6350814874979E-03	2.6350814874979E-03	2.6350814874979E-03
2.6619515866946E-03	2.6619515866946E-03	2.6619515866946E-03
2.6888656727768E-03	2.6888656727768E-03	2.6888656727768E-03
2.7158238159084E-03	2.7158238159084E-03	2.7158238159084E-03
2.7428260863589E-03	2.7428260863589E-03	2.7428260863589E-03
2.7698725545034E-03	2.7698725545034E-03	2.7698725545034E-03
2.7969632908233E-03	2.7969632908233E-03	2.7969632908233E-03
2.8240983659059E-03	2.8240983659059E-03	2.8240983659059E-03
2.8512778504447E-03	2.8512778504447E-03	2.8512778504447E-03
2.8785018152397E-03	2.8785018152397E-03	2.8785018152397E-03
2.9057703311972E-03	2.9057703311972E-03	2.9057703311972E-03
2.9330834693304E-03	2.9330834693304E-03	2.9330834693304E-03
2.9604413007591E-03	2.9604413007591E-03	2.9604413007591E-03
2.9878438967100E-03	2.9878438967100E-03	2.9878438967100E-03
3.0152913285169E-03	3.0152913285169E-03	3.0152913285169E-03
3.0427836676209E-03	3.0427836676209E-03	3.0427836676209E-03
3.0703209855704E-03	3.0703209855704E-03	3.0703209855704E-03
3.0979033540210E-03	3.0979033540210E-03	3.0979033540210E-03
3.1255308447364E-03	3.1255308447364E-03	3.1255308447364E-03
3.1532035295876E-03	3.1532035295876E-03	3.1532035295876E-03
3.1809214805537E-03	3.1809214805537E-03	3.1809214805537E-03
3.2086847697219E-03	3.2086847697219E-03	3.2086847697219E-03
3.2364934692873E-03	3.2364934692873E-03	3.2364934692873E-03
3.2643476515538E-03	3.2643476515538E-03	3.2643476515538E-03
3.2922473889331E-03	3.2922473889331E-03	3.2922473889331E-03
3.3201927539461E-03	3.3201927539461E-03	3.3201927539461E-03
3.3481838192220E-03	3.3481838192220E-03	3.3481838192220E-03
3.3762206574991E-03	3.3762206574991E-03	3.3762206574991E-03
3.4043033416246E-03	3.4043033416246E-03	3.4043033416246E-03
3.4324319445550E-03	3.4324319445550E-03	3.4324319445550E-03
3.4606065393558E-03	3.4606065393558E-03	3.4606065393558E-03
3.4888271992023E-03	3.4888271992023E-03	3.4888271992023E-03
3.5170939973790E-03	3.5170939973790E-03	3.5170939973790E-03
3.5454070072805E-03	3.5454070072805E-03	3.5454070072805E-03
3.5737663024110E-03	3.5737663024110E-03	3.5737663024110E-03
3.6021719563846E-03	3.6021719563846E-03	3.6021719563846E-03
3.6306240429258E-03	3.6306240429258E-03	3.6306240429258E-03
3.6591226358693E-03	3.6591226358693E-03	3.6591226358693E-03
3.6876678091601E-03	3.6876678091601E-03	3.6876678091601E-03
3.7162596368539E-03	3.7162596368539E-03	3.7162596368539E-03
3.7448981931169E-03	3.7448981931169E-03	3.7448981931169E-03
3.7735835522265E-03	3.7735835522265E-03	3.7735835522265E-03
3.8023157885707E-03	3.8023157885707E-03	3.8023157885707E-03
3.8310949766487E-03	3.8310949766487E-03	3.8310949766487E-03
3.8599211910713E-03	3.8599211910713E-03	3.8599211910713E-03
3.8887945065603E-03	3.8887945065603E-03	3.8887945065603E-03
3.9177149979492E-03	3.9177149979492E-03	3.9177149979492E-03
3.9466827401833E-03	3.9466827401833E-03	3.9466827401833E-03
3.9756978083195E-03	3.9756978083195E-03	3.9756978083195E-03
4.0047602775270E-03	4.0047602775270E-03	4.0047602775270E-03
4.0338702230867E-03	4.0338702230867E-03	4.0338702230867E-03
4.0630277203922E-03	4.0630277203922E-03	4.0630277203922E-03
4.0922328449492E-03	4.0922328449492E-03	4.0922328449492E-03
4.1214856723760E-03	4.1214856723760E-03	4.1214856723760E-03
4.1507862784037E-03	4.1507862784037E-03	4.1507862784037E-03
4.1801347388762E-03	4.1801347388762E-03	4.1801347388762E-03
4.2095311297502E-03	4.2095311297502E-03	4.2095311297502E-03
4.2389755270957E-03	4.2389755270957E-03	4.2389755270957E-03
4.2684680070960E-03	4.2684680070960E-03	4.2684680070960E-03
4.2980086460477E-03	4.2980086460477E-03	4.2980086460477E-03
4.3275975203609E-03	4.3275975203609E-03	4.3275975203609E-03
4.3572347065595E-03	4.3572347065595E-03	4.3572347065595E-03
4.3869202812811E-03	4.3869202812811E-03	4.3869202812811E-03
4.4166543212775E-03	4.4166543212775E-03	4.4166543212775E-03
4.4464369034145E-03	4.4464369034145E-03	4.4464369034145E-03
4.4762681046719E-03	4.4762681046719E-03	4.4762681046719E-03
4.5061480021445E-03	4.5061480021445E-03	4.5061480021445E-03
4.5360766730410E-03	4.5360766730410E-03	4.5360766730410E-03
4.5660541946853E-03	4.5660541946853E-03	4.5660541946853E-03
4.5960806445159E-03	4.5960806445159E-03	4.5960806445159E-03
4.6261561000863E-03	4.6261561000863E-03	4.6261561000863E-03
4.6562806390652E-03	4.6562806390652E-03	4.6562806390652E-03
4.6864543392364E-03	4.6864543392364E-03	4.6864543392364E-03
4.7166772784994E-03	4.7166772784994E-03	4.7166772784994E-03
4.7469495348691E-03	4.7469495348691E-03	4.7469495348691E-03
4.7772711864760E-03	4.7772711864760E-03	4.7772711864760E-03
4.8076423115666E-03	4.8076423115666E-03	4.8076423115666E-03
4.8380629885034E-03	4.8380629885034E-03	4.8380629885034E-03
4.8685332957650E-03	4.8685332957650E-03	4.8685332957650E-03
4.8990533119462E-03	4.8990533119462E-03	4.8990533119462E-03
4.9296231157583E-03	4.9296231157583E-03	4.9296231157583E-03
4.9602427860294E-03	4.9602427860294E-03	4.9602427860294E-03
4.9909124017038E-03	4.9909124017038E-03	4.9909124017038E-03
5.0216320418432E-03	5.0216320418432E-03	5.0216320418432E-03
5.0524017856259E-03	5.0524017856259E-03	5.0524017856259E-03
5.0832217123477E-03	5.0832217123477E-03	5.0832217123477E-03
5.1140919014214E-03	5.1140919014214E-03	5.1140919014214E-03
5.1450124323775E-03	5.1450124323775E-03	5.1450124323775E-03
5.1759833848639E-03	5.1759833848639E-03	5.1759833848639E-03
5.2070048386463E-03	5.2070048386463E-03	5.2070048386463E-03
5.2380768736083E-03	5.2380768736083E-03	5.2380768736083E-03
5.2691995697515E-03	5.2691995697515E-03	5.2691995697515E-03
5.3003730071958E-03	5.3003730071958E-03	5.3003730071958E-03
5.3315972661793E-03	5.3315972661793E-03	5.3315972661793E-03
5.3628724270584E-03	5.3628724270584E-03	5.3628724270584E-03
5.3941985703085E-03	5.3941985703085E-03	5.3941985703085E-03
5.4255757765235E-03	5.4255757765235E-03	5.4255757765235E-03
5.4570041264163E-03	5.4570041264163E-03	5.4570041264163E-03
5.4884837008187E-03	5.4884837008187E-03	5.4884837008187E-03
5.5200145806820E-03	5.5200145806820E-03	5.5200145806820E-03
5.5515968470765E-03	5.5515968470765E-03	5.5515968470765E-03
5.5832305811922E-03	5.5832305811922E-03	5.5832305811922E-03
5.6149158643388E-03	5.6149158643388E-03	5.6149158643388E-03
5.6466527779455E-03	5.6466527779455E-03	5.6466527779455E-03
5.6784414035617E-03	5.6784414035617E-03	5.6784414035617E-03
5.7102818228568E-03	5.7102818228568E-03	5.7102818228568E-03
5.7421741176205E-03	5.7421741176205E-03	5.7421741176205E-03
5.7741183697626E-03	5.7741183697626E-03	5.7741183697626E-03
5.8061146613137E-03	5.8061146613137E-03	5.8061146613137E-03
5.8381630744251E-03	5.8381630744251E-03	5.8381630744251E-03
5.8702636913686E-03	5.8702636913686E-03	5.8702636913686E-03
5.9024165945373E-03	5.9024165945373E-03	5.9024165945373E-03
5.9346218664452E-03	5.9346218664452E-03	5.9346218664452E-03
5.9668795897276E-03	5.9668795897276E-03	5.9668795897276E-03
5.9991898471413E-03	5.9991898471413E-03	5.9991898471413E-03
6.0315527215645E-03	6.0315527215645E-03	6.0315527215645E-03
6.0639682959973E-03	6.0639682959973E-03	6.0639682959973E-03
6.0964366535614E-03	6.0964366535614E-03	6.0964366535614E-03
6.1289578775007E-03	6.1289578775007E-03	6.1289578775007E-03
6.1615320511812E-03	6.1615320511812E-03	6.1615320511812E-03
6.1941592580912E-03	6.1941592580912E-03	6.1941592580912E-03
6.2268395818412E-03	6.2268395818412E-03	6.2268395818412E-03
6.2595731061647E-03	6.2595731061647E-03	6.2595731061647E-03
6.2923599149177E-03	6.2923599149177E-03	6.2923599149177E-03
6.3252000920790E-03	6.3252000920790E-03	6.3252000920790E-03
6.3580937217506E-03	6.3580937217506E-03	6.3580937217506E-03
6.3910408881577E-03	6.3910408881577E-03	6.3910408881577E-03
6.4240416756486E-03	6.4240416756486E-03	6.4240416756486E-03
6.4570961686955E-03	6.4570961686955E-03	6.4570961686955E-03
6.4902044518937E-03	6.4902044518937E-03	6.4902044518937E-03
6.5233666099626E-03	6.5233666099626E-03	6.5233666099626E-03
6.5565827277456E-03	6.5565827277456E-03	6.5565827277456E-03
6.5898528902099E-03	6.5898528902099E-03	6.5898528902099E-03
6.6231771824472E-03	6.6231771824472E-03	6.6231771824472E-03
6.6565556896733E-03	6.6565556896733E-03	6.6565556896733E-03
6.6899884972286E-03	6.6899884972286E-03	6.6899884972286E-03
6.7234756905784E-03	6.7234756905784E-03	6.7234756905784E-03
6.7570173553125E-03	6.7570173553125E-03	6.7570173553125E-03
6.7906135771459E-03	6.7906135771459E-03	6.7906135771459E-03
6.8242644419186E-03	6.8242644419186E-03	6.8242644419186E-03
6.8579700355958E-03	6.8579700355958E-03	6.8579700355958E-03
6.8917304442684E-03	6.8917304442684E-03	6.8917304442684E-03
6.9255457541524E-03	6.9255457541524E-03	6.9255457541524E-03
6.9594160515900E-03	6.9594160515900E-03	6.9594160515900E-03
6.9933414230490E-03	6.9933414230490E-03	6.9933414230490E-03
7.0273219551232E-03	7.0273219551232E-03	7.0273219551232E-03
7.0613577345326E-03	7.0613577345326E-03	7.0613577345326E-03
7.0954488481237E-03	7.0954488481237E-03	7.0954488481237E-03
7.1295953828691E-03	7.1295953828691E-03	7.1295953828691E-03
7.1637974258684E-03	7.1637974258684E-03	7.1637974258684E-03
7.1980550643476E-03	7.1980550643476E-03	7.1980550643476E-03
7.2323683856599E-03	7.2323683856599E-03	7.2323683856599E-03
7.2667374772854E-03	7.2667374772854E-03	7.2667374772854E-03
7.3011624268315E-03	7.3011624268315E-03	7.3011624268315E-03
7.3356433220328E-03	7.3356433220328E-03	7.3356433220328E-03
7.3701802507517E-03	7.3701802507517E-03	7.3701802507517E-03
7.4047733009779E-03	7.4047733009779E-03	7.4047733009779E-03
7.4394225608293E-03	7.4394225608293E-03	7.4394225608293E-03
7.4741281185515E-03	7.4741281185515E-03	7.4741281185515E-03
7.5088900625182E-03	7.5088900625182E-03	7.5088900625182E-03
7.5437084812315E-03	7.5437084812315E-03	7.5437084812315E-03
7.5785834633219E-03	7.5785834633219E-03	7.5785834633219E-03
7.6135150975485E-03	7.6135150975485E-03	7.6135150975485E-03
7.6485034727988E-03	7.6485034727988E-03	7.6485034727988E-03
7.6835486780896E-03	7.6835486780896E-03	7.6835486780896E-03
7.7186508025664E-03	7.7186508025664E-03	7.7186508025664E-03
7.7538099355041E-03	7.7538099355041E-03	7.7538099355041E-03
7.7890261663067E-03	7.7890261663067E-03	7.7890261663067E-03
7.8242995845079E-03	7.8242995845079E-03	7.8242995845079E-03
7.8596302797707E-03	7.8596302797707E-03	7.8596302797707E-03
7.8950183418883E-03	7.8950183418883E-03	7.8950183418883E-03
7.9304638607833E-03	7.9304638607833E-03	7.9304638607833E-03
7.9659669265089E-03	7.9659669265089E-03	7.9659669265089E-03
8.0015276292482E-03	8.0015276292482E-03	8.0015276292482E-03
8.0371460593147E-03	8.0371460593147E-03	8.0371460593147E-03
8.0728223071525E-03	8.0728223071525E-03	8.0728223071525E-03
8.1085564633364E-03	8.1085564633364E-03	8.1085564633364E-03
8.1443486185719E-03	8.1443486185719E-03	8.1443486185719E-03
8.1801988636955E-03	8.1801988636955E-03	8.1801988636955E-03
8.2161072896751E-03	8.2161072896751E-03	8.2161072896751E-03
8.2520739876095E-03	8.2520739876095E-03	8.2520739876095E-03
8.2880990487291E-03	8.2880990487291E-03	8.2880990487291E-03
8.3241825643959E-03	8.3241825643959E-03	8.3241825643959E-03
8.3603246261036E-03	8.3603246261036E-03	8.3603246261036E-03
8.3965253254778E-03	8.3965253254778E-03	8.3965253254778E-03
8.4327847542762E-03	8.4327847542762E-03	8.4327847542762E-03
8.4691030043886E-03	8.4691030043886E-03	8.4691030043886E-03
8.5054801678372E-03	8.5054801678372E-03	8.5054801678372E-03
8.5419163367765E-03	8.5419163367765E-03	8.5419163367765E-03
8.5784116034939E-03	8.5784116034939E-03	8.5784116034939E-03
8.6149660604096E-03	8.6149660604096E-03	8.6149660604096E-03
8.6515798000764E-03	8.6515798000764E-03	8.6515798000764E-03
8.6882529151807E-03	8.6882529151807E-03	8.6882529151807E-03
8.7249854985417E-03	8.7249854985417E-03	8.7249854985417E-03
8.7617776431123E-03	8.7617776431123E-03	8.7617776431123E-03
8.7986294419788E-03	8.7986294419788E-03	8.7986294419788E-03
8.8355409883613E-03	8.8355409883613E-03	8.8355409883613E-03
8.8725123756136E-03	8.8725123756136E-03	8.8725123756136E-03
8.9095436972238E-03	8.9095436972238E-03	8.9095436972238E-03
8.9466350468137E-03	8.9466350468137E-03	8.9466350468137E-03
8.9837865181400E-03	8.9837865181400E-03	8.9837865181400E-03
9.0209982050934E-03	9.0209982050934E-03	9.0209982050934E-03
9.0582702016993E-03	9.0582702016993E-03	9.0582702016993E-03
9.0956026021181E-03	9.0956026021181E-03	9.0956026021181E-03
9.1329955006449E-03	9.1329955006449E-03	9.1329955006449E-03
9.1704489917099E-03	9.1704489917099E-03	9.1704489917099E-03
9.2079631698785E-03	9.2079631698785E-03	9.2079631698785E-03
9.2455381298517E-03	9.2455381298517E-03	9.2455381298517E-03
9.2831739664658E-03	9.2831739664658E-03	9.2831739664658E-03
9.3208707746928E-03	9.3208707746928E-03	9.3208707746928E-03
9.3586286496406E-03	9.3586286496406E-03	9.3586286496406E-03
9.3964476865530E-03	9.3964476865530E-03	9.3964476865530E-03
9.4343279808102E-03	9.4343279808102E-03	9.4343279808102E-03
9.4722696279283E-03	9.4722696279283E-03	9.4722696279283E-03
9.5102727235600E-03	9.5102727235600E-03	9.5102727235600E-03
9.5483373634949E-03	9.5483373634949E-03	9.5483373634949E-03
9.5864636436588E-03	9.5864636436588E-03	9.5864636436588E-03
9.6246516601147E-03	9.6246516601147E-03	9.6246516601147E-03
9.6629015090628E-03	9.6629015090628E-03	9.6629015090628E-03
9.7012132868401E-03	9.7012132868401E-03	9.7012132868401E-03
9.7395870899214E-03	9.7395870899214E-03	9.7395870899214E-03
9.7780230149186E-03	9.7780230149186E-03	9.7780230149186E-03
9.8165211585815E-03	9.8165211585815E-03	9.8165211585815E-03
9.8550816177978E-03	9.8550816177978E-03	9.8550816177978E-03
9.8937044895928E-03	9.8937044895928E-03	9.8937044895928E-03
9.9323898711303E-03	9.9323898711303E-03	9.9323898711303E-03
9.9711378597122E-03	9.9711378597122E-03	9.9711378597122E-03
1.0009948552779E-02	1.0009948552779E-02	1.0009948552779E-02
1.0048822047909E-02	1.0048822047909E-02	1.0048822047909E-02
1.0087758442820E-02	1.0087758442820E-02	1.0087758442820E-02
1.0126757835370E-02	1.0126757835370E-02	1.0126757835370E-02
1.0165820323552E-02	1.0165820323552E-02	1.0165820323552E-02
1.0204946005503E-02	1.0204946005503E-02	1.0204946005503E-02
1.0244134979495E-02	1.0244134979495E-02	1.0244134979495E-02
1.0283387343944E-02	1.0283387343944E-02	1.0283387343944E-02
1.0322703197401E-02	1.0322703197401E-02	1.0322703197401E-02
1.0362082638560E-02	1.0362082638560E-02	1.0362082638560E-02
1.0401525766253E-02	1.0401525766253E-02	1.0401525766253E-02
1.0441032679455E-02	1.0441032679455E-02	1.0441032679455E-02
1.0480603477277E-02	1.0480603477277E-02	1.0480603477277E-02
1.0520238258975E-02	1.0520238258975E-02	1.0520238258975E-02
1.0559937123941E-02	1.0559937123941E-02	1.0559937123941E-02
1.0599700171711E-02	1.0599700171711E-02	1.0599700171711E-02
1.0639527501961E-02	1.0639527501961E-02	1.0639527501961E-02
1.0679419214508E-02	1.0679419214508E-02	1.0679419214508E-02
1.0719375409309E-02	1.0719375409309E-02	1.0719375409309E-02
1.0759396186464E-02	1.0759396186464E-02	1.0759396186464E-02
1.0799481646214E-02	1.0799481646214E-02	1.0799481646214E-02
1.0839631888940E-02	1.0839631888940E-02	1.0839631888940E-02
1.0879847015168E-02	1.0879847015168E-02	1.0879847015168E-02
1.0920127125564E-02	1.0920127125564E-02	1.0920127125564E-02
1.0960472320934E-02	1.0960472320934E-02	1.0960472320934E-02
1.1000882702231E-02	1.1000882702231E-02	1.1000882702231E-02
1.1041358370546E-02	1.1041358370546E-02	1.1041358370546E-02
1.1081899427116E-02	1.1081899427116E-02	1.1081899427116E-02
1.1122505973317E-02	1.1122505973317E-02	1.1122505973317E-02
1.1163178110672E-02	1.1163178110672E-02	1.1163178110672E-02
1.1203915940843E-02	1.1203915940843E-02	1.1203915940843E-02
1.1244719565637E-02	1.1244719565637E-02	1.1244719565637E-02
1.1285589087006E-02	1.1285589087006E-02	1.1285589087006E-02
1.1326524607043E-02	1.1326524607043E-02	1.1326524607043E-02
1.1367526227985E-02	1.1367526227985E-02	1.1367526227985E-02
1.1408594052213E-02	1.1408594052213E-02	1.1408594052213E-02
1.1449728182252E-02	1.1449728182252E-02	1.1449728182252E-02
1.1490928720772E-02	1.1490928720772E-02	1.1490928720772E-02
1.1532195770585E-02	1.1532195770585E-02	1.1532195770585E-02
1.1573529434649E-02	1.1573529434649E-02	1.1573529434649E-02
1.1614929816067E-02	1.1614929816067E-02	1.1614929816067E-02
1.1656397018085E-02	1.1656397018085E-02	1.1656397018085E-02
1.1697931144095E-02	1.1697931144095E-02	1.1697931144095E-02
1.1739532297634E-02	1.1739532297634E-02	1.1739532297634E-02
1.1781200582382E-02	1.1781200582382E-02	1.1781200582382E-02
1.1822936102168E-02	1.1822936102168E-02	1.1822936102168E-02
1.1864738960964E-02	1.1864738960964E-02	1.1864738960964E-02
1.1906609262887E-02	1.1906609262887E-02	1.1906609262887E-02
1.1948547112202E-02	1.1948547112202E-02	1.1948547112202E-02
1.1990552613317E-02	1.1990552613317E-02	1.1990552613317E-02
1.2032625870790E-02	1.2032625870790E-02	1.2032625870790E-02
1.2074766989321E-02	1.2074766989321E-02	1.2074766989321E-02
1.2116976073759E-02	1.2116976073759E-02	1.2116976073759E-02
1.2159253229099E-02	1.2159253229099E-02	1.2159253229099E-02
1.2201598560481E-02	1.2201598560481E-02	1.2201598560481E-02
1.2244012173194E-02	1.2244012173194E-02	1.2244012173194E-02
1.2286494172673E-02	1.2286494172673E-02	1.2286494172673E-02
